; generated by PrusaSlicer 2.3.3+win64 on 2021-12-13 at 13:56:10 UTC

; 

; external perimeters extrusion width = 0.45mm
; perimeters extrusion width = 0.45mm
; infill extrusion width = 0.45mm
; solid infill extrusion width = 0.45mm
; top infill extrusion width = 0.40mm
; first layer extrusion width = 0.42mm

M73 P0 R60
M73 Q0 S60
M201 X1000 Y1000 Z200 E5000 ; sets maximum accelerations, mm/sec^2
M203 X200 Y200 Z12 E120 ; sets maximum feedrates, mm/sec
M204 P1250 R1250 T1250 ; sets acceleration (P, T) and retract acceleration (R), mm/sec^2
M205 X8.00 Y8.00 Z0.40 E4.50 ; sets the jerk limits, mm/sec
M205 S0 T0 ; sets the minimum extruding and travel feed rate, mm/sec
M107
;TYPE:Custom
M862.3 P "MK3S" ; printer model check
M862.1 P0.4 ; nozzle diameter check
M115 U3.10.0 ; tell printer latest fw version
G90 ; use absolute coordinates
M83 ; extruder relative mode
M104 S215 ; set extruder temp
M140 S60 ; set bed temp
M190 S60 ; wait for bed temp
M109 S215 ; wait for extruder temp
G28 W ; home all without mesh bed level
G80 ; mesh bed leveling
G1 Y-3.0 F1000.0 ; go outside print area
G92 E0.0
G1 X60.0 E9.0 F1000.0 ; intro line
G1 X100.0 E12.5 F1000.0 ; intro line
G92 E0.0
M221 S95

; Don't change E values below. Excessive value can damage the printer.
M907 E430 ; set extruder motor current
G21 ; set units to millimeters
G90 ; use absolute coordinates
M83 ; use relative distances for extrusion
M900 K0.05 ; Filament gcode LA 1.5
M900 K30 ; Filament gcode LA 1.0
;LAYER_CHANGE
;Z:0.2
;HEIGHT:0.2
;BEFORE_LAYER_CHANGE
G92 E0.0
;0.2


G1 E-0.80000 F2100.000
G1 Z0.400 F10800.000
;AFTER_LAYER_CHANGE
;0.2
G1 X84.064 Y83.771
G1 Z0.200
G1 E0.80000 F2100.000
M204 S1000
;TYPE:Skirt
;WIDTH:0.42
G1 F1200.000
G1 X84.888 Y83.178 E0.03182
G1 X86.054 Y82.740 E0.03905
G1 X86.983 Y82.633 E0.02932
G1 X163.004 Y82.633 E2.38358
G1 X163.772 Y82.702 E0.02417
G1 X164.542 Y82.914 E0.02506
G1 X165.241 Y83.252 E0.02434
G1 X165.939 Y83.773 E0.02731
G1 X166.470 Y84.354 E0.02468
G1 X167.031 Y85.329 E0.03525
G1 X167.284 Y86.158 E0.02719
G1 X167.365 Y86.888 E0.02303
G1 X167.363 Y123.133 E1.13645
G1 X167.153 Y124.344 E0.03852
G1 X166.752 Y125.235 E0.03063
G1 X165.933 Y126.232 E0.04047
G1 X165.112 Y126.822 E0.03170
G1 X163.946 Y127.260 E0.03905
G1 X163.017 Y127.367 E0.02933
G1 X86.950 Y127.367 E2.38501
G1 X85.682 Y127.160 E0.04029
G1 X84.785 Y126.764 E0.03075
G1 X84.218 Y126.366 E0.02172
G1 X83.771 Y125.936 E0.01946
G1 X83.178 Y125.112 E0.03182
G1 X82.741 Y123.950 E0.03893
G1 X82.633 Y123.032 E0.02897
G1 X82.635 Y86.901 E1.13287
G1 X82.844 Y85.667 E0.03923
G1 X83.242 Y84.775 E0.03063
G1 X84.026 Y83.817 E0.03882
; printing object Schizzo Montedelgallo corso v8.stl id:0 copy 0
;WIPE_START
G1 F8640.000
G1 X84.888 Y83.178 E-0.24772
G1 X86.054 Y82.740 E-0.28754
G1 X86.983 Y82.633 E-0.21595
G1 X87.021 Y82.633 E-0.00878
;WIPE_END
G1 E-0.04000 F2100.000
G1 Z0.600 F10800.000
G1 X88.760 Y117.914
G1 Z0.200
G1 E0.80000 F2100.000
;TYPE:External perimeter
G1 F1200.000
G1 X89.240 Y117.914 E0.01508
G1 X89.715 Y117.993 E0.01508
G1 X90.169 Y118.149 E0.01508
G1 X90.592 Y118.378 E0.01508
G1 X90.972 Y118.674 E0.01508
G1 X91.298 Y119.027 E0.01508
G1 X91.561 Y119.430 E0.01508
G1 X91.754 Y119.870 E0.01508
G1 X91.872 Y120.336 E0.01508
G1 X91.911 Y120.816 E0.01508
G1 X91.872 Y121.295 E0.01508
G1 X91.754 Y121.761 E0.01508
G1 X91.561 Y122.201 E0.01508
G1 X91.298 Y122.604 E0.01508
G1 X90.972 Y122.958 E0.01508
G1 X90.592 Y123.253 E0.01508
G1 X90.169 Y123.482 E0.01508
G1 X89.715 Y123.638 E0.01508
G1 X89.240 Y123.717 E0.01508
G1 X88.760 Y123.717 E0.01508
G1 X88.285 Y123.638 E0.01508
G1 X87.831 Y123.482 E0.01508
G1 X87.408 Y123.253 E0.01508
G1 X87.028 Y122.958 E0.01508
G1 X86.702 Y122.604 E0.01508
G1 X86.439 Y122.201 E0.01508
G1 X86.246 Y121.761 E0.01508
G1 X86.128 Y121.295 E0.01508
G1 X86.089 Y120.816 E0.01508
G1 X86.128 Y120.336 E0.01508
G1 X86.246 Y119.870 E0.01508
G1 X86.439 Y119.430 E0.01508
G1 X86.702 Y119.027 E0.01508
G1 X87.028 Y118.674 E0.01508
G1 X87.408 Y118.378 E0.01508
G1 X87.831 Y118.149 E0.01508
G1 X88.285 Y117.993 E0.01508
G1 X88.700 Y117.924 E0.01320
G1 X88.930 Y117.552 F10800.000
;WIPE_START
G1 F8640.000
G1 X89.240 Y117.914 E-0.12471
G1 X89.715 Y117.993 E-0.11103
G1 X90.169 Y118.149 E-0.11103
G1 X90.592 Y118.378 E-0.11103
G1 X90.972 Y118.674 E-0.11103
G1 X91.298 Y119.027 E-0.11103
G1 X91.487 Y119.318 E-0.08014
;WIPE_END
G1 E-0.04000 F2100.000
G1 Z0.600 F10800.000
G1 X85.994 Y122.125
G1 Z0.200
G1 E0.80000 F2100.000
;TYPE:Perimeter
G1 F1200.000
G1 X86.107 Y122.381 E0.00879
G1 X86.404 Y122.836 E0.01704
G1 X86.772 Y123.236 E0.01704
G1 X87.201 Y123.570 E0.01704
G1 X87.679 Y123.828 E0.01704
G1 X88.200 Y124.006 E0.01726
G1 X87.034 Y124.006 E0.03654
G1 X86.826 Y123.988 E0.00656
G1 X86.657 Y123.942 E0.00548
G1 X86.499 Y123.869 E0.00548
G1 X86.355 Y123.768 E0.00548
G1 X86.232 Y123.645 E0.00548
G1 X86.131 Y123.501 E0.00548
G1 X86.058 Y123.343 E0.00548
G1 X86.012 Y123.174 E0.00548
G1 X85.994 Y122.966 E0.00656
G1 X85.994 Y122.185 E0.02449
;WIPE_START
G1 F8640.000
G1 X86.107 Y122.381 E-0.05238
G1 X86.404 Y122.836 E-0.12546
G1 X86.772 Y123.236 E-0.12546
G1 X87.201 Y123.570 E-0.12546
G1 X87.679 Y123.828 E-0.12546
G1 X88.200 Y124.006 E-0.12712
G1 X87.859 Y124.006 E-0.07867
;WIPE_END
G1 E-0.04000 F2100.000
G1 Z0.600 F10800.000
G1 X85.994 Y119.507
G1 Z0.200
G1 E0.80000 F2100.000
G1 F1200.000
G1 X85.994 Y87.034 E1.01815
G1 X86.012 Y86.826 E0.00656
G1 X86.058 Y86.657 E0.00548
G1 X86.131 Y86.499 E0.00548
G1 X86.232 Y86.355 E0.00548
G1 X86.355 Y86.232 E0.00548
G1 X86.499 Y86.131 E0.00548
G1 X86.657 Y86.058 E0.00548
G1 X86.826 Y86.012 E0.00548
G1 X87.034 Y85.994 E0.00656
G1 X163.091 Y86.005 E2.38469
G1 X163.343 Y86.058 E0.00808
G1 X163.501 Y86.131 E0.00548
G1 X163.645 Y86.232 E0.00548
G1 X163.768 Y86.355 E0.00548
G1 X163.869 Y86.499 E0.00548
G1 X163.942 Y86.657 E0.00548
G1 X163.988 Y86.826 E0.00548
G1 X164.006 Y87.034 E0.00656
G1 X164.006 Y122.966 E1.12660
G1 X163.988 Y123.174 E0.00656
G1 X163.942 Y123.343 E0.00548
G1 X163.869 Y123.501 E0.00548
G1 X163.768 Y123.645 E0.00548
G1 X163.645 Y123.768 E0.00548
G1 X163.501 Y123.869 E0.00548
G1 X163.343 Y123.942 E0.00548
G1 X163.174 Y123.988 E0.00548
G1 X162.966 Y124.006 E0.00656
G1 X89.800 Y124.006 E2.29405
G1 X90.321 Y123.828 E0.01726
G1 X90.799 Y123.570 E0.01704
G1 X91.228 Y123.236 E0.01704
G1 X91.596 Y122.836 E0.01704
G1 X91.893 Y122.381 E0.01704
G1 X92.112 Y121.884 E0.01704
G1 X92.245 Y121.357 E0.01704
G1 X92.290 Y120.816 E0.01704
G1 X92.245 Y120.274 E0.01704
G1 X92.112 Y119.747 E0.01704
G1 X91.893 Y119.250 E0.01704
G1 X91.596 Y118.795 E0.01704
G1 X91.228 Y118.395 E0.01704
G1 X90.799 Y118.062 E0.01704
G1 X90.321 Y117.803 E0.01704
G1 X89.808 Y117.627 E0.01704
G1 X89.272 Y117.537 E0.01704
G1 X88.728 Y117.537 E0.01704
G1 X88.192 Y117.627 E0.01704
G1 X87.679 Y117.803 E0.01704
G1 X87.201 Y118.062 E0.01704
G1 X86.772 Y118.395 E0.01704
G1 X86.404 Y118.795 E0.01704
G1 X86.107 Y119.250 E0.01704
G1 X86.018 Y119.452 E0.00691
;WIPE_START
G1 F8640.000
G1 X86.016 Y116.160 E-0.76000
;WIPE_END
G1 E-0.04000 F2100.000
G1 Z0.600 F10800.000
G1 X86.042 Y123.989
G1 Z0.200
G1 E0.80000 F2100.000
;TYPE:External perimeter
G1 F1200.000
G1 X85.942 Y123.888 E0.00447
G1 X85.804 Y123.691 E0.00755
G1 X85.702 Y123.472 E0.00755
G1 X85.640 Y123.240 E0.00755
G1 X85.617 Y122.982 E0.00811
G1 X85.617 Y87.018 E1.12763
M73 P1 R60
M73 Q1 S60
G1 X85.640 Y86.760 E0.00811
G1 X85.702 Y86.528 E0.00755
G1 X85.804 Y86.309 E0.00755
G1 X85.942 Y86.112 E0.00755
G1 X86.112 Y85.942 E0.00755
G1 X86.309 Y85.804 E0.00755
G1 X86.528 Y85.702 E0.00755
G1 X86.760 Y85.640 E0.00755
G1 X87.018 Y85.617 E0.00811
G1 X163.107 Y85.628 E2.38572
G1 X163.240 Y85.640 E0.00418
G1 X163.472 Y85.702 E0.00755
G1 X163.691 Y85.804 E0.00755
G1 X163.888 Y85.942 E0.00755
G1 X164.058 Y86.112 E0.00755
G1 X164.196 Y86.309 E0.00755
G1 X164.298 Y86.528 E0.00755
G1 X164.360 Y86.760 E0.00755
G1 X164.383 Y87.018 E0.00811
G1 X164.383 Y122.982 E1.12763
G1 X164.360 Y123.240 E0.00811
G1 X164.298 Y123.472 E0.00755
G1 X164.196 Y123.691 E0.00755
G1 X164.058 Y123.888 E0.00755
G1 X163.888 Y124.058 E0.00755
G1 X163.691 Y124.196 E0.00755
G1 X163.472 Y124.298 E0.00755
G1 X163.240 Y124.360 E0.00755
G1 X162.982 Y124.383 E0.00811
G1 X87.018 Y124.383 E2.38180
M73 P1 R59
G1 X86.760 Y124.360 E0.00811
G1 X86.528 Y124.298 E0.00755
G1 X86.309 Y124.196 E0.00755
G1 X86.085 Y124.031 E0.00874
G1 X86.069 Y123.849 F10800.000
G1 X86.479 Y123.624
;TYPE:Gap fill
;WIDTH:0.123472
G1 F1200.000
G1 X86.216 Y122.956 E0.00481
;WIDTH:0.11062
G1 X86.201 Y122.903 E0.00031
G1 X86.185 Y122.990 F10800.000
;WIDTH:0.323577
G1 F1200.000
G1 X86.417 Y123.336 E0.00972
;WIDTH:0.334835
G1 X86.573 Y123.509 E0.00564
G1 X87.058 Y123.817 E0.01396
G1 X87.186 Y123.803 F10800.000
;WIDTH:0.142744
G1 F1200.000
G1 X86.388 Y123.535 E0.00698
;WIPE_START
G1 F8640.000
G1 X87.186 Y123.803 E-0.19431
;WIPE_END
G1 E-0.60569 F2100.000
G1 Z0.600 F10800.000
G1 X85.949 Y121.941
G1 Z0.200
G1 E0.80000 F2100.000
;WIDTH:0.2595
G1 F1200.000
G1 X85.900 Y121.542 E0.00724
;WIDTH:0.136976
G1 X85.853 Y120.812 E0.00573
;WIDTH:0.181218
G1 X85.875 Y120.288 E0.00602
;WIDTH:0.220359
G1 X85.900 Y120.089 E0.00297
;WIDTH:0.2595
G1 X85.924 Y119.889 E0.00362
;WIDTH:0.298641
G1 X85.949 Y119.690 E0.00427
;WIPE_START
G1 F8640.000
G1 X85.924 Y119.889 E-0.04641
;WIPE_END
G1 E-0.75359 F2100.000
G1 Z0.600 F10800.000
G1 X88.388 Y124.022
G1 Z0.200
G1 E0.80000 F2100.000
;WIDTH:0.333754
G1 F1200.000
G1 X88.744 Y124.050 E0.00865
G1 X89.280 Y124.049 E0.01296
;WIDTH:0.362468
G1 X89.612 Y124.022 E0.00886
;WIPE_START
G1 F8640.000
G1 X89.280 Y124.049 E-0.07704
;WIPE_END
G1 E-0.72296 F2100.000
G1 Z0.600 F10800.000
G1 X90.814 Y123.803
G1 Z0.200
G1 E0.80000 F2100.000
;WIDTH:0.142744
G1 F1200.000
G1 X91.162 Y123.699 E0.00301
;WIPE_START
G1 F8640.000
G1 X90.814 Y123.803 E-0.08386
;WIPE_END
G1 E-0.71614 F2100.000
G1 Z0.600 F10800.000
G1 X163.878 Y86.865
G1 Z0.200
G1 E0.80000 F2100.000
;TYPE:Solid infill
;WIDTH:0.420506
G1 F1200.000
G1 X163.461 Y86.448 E0.01851
G1 X163.360 Y86.377 E0.00388
G1 X163.253 Y86.328 E0.00368
G1 X163.061 Y86.288 E0.00615
G1 X162.766 Y86.288 E0.00927
G1 X163.723 Y87.245 E0.04248
G1 X163.723 Y87.779 E0.01677
G1 X162.232 Y86.288 E0.06620
G1 X161.698 Y86.288 E0.01677
G1 X163.723 Y88.312 E0.08991
G1 X163.723 Y88.846 E0.01677
G1 X161.164 Y86.288 E0.11362
G1 X160.630 Y86.287 E0.01677
G1 X163.723 Y89.380 E0.13733
G1 X163.723 Y89.914 E0.01677
G1 X160.096 Y86.287 E0.16105
G1 X159.562 Y86.287 E0.01677
G1 X163.723 Y90.448 E0.18476
G1 X163.723 Y90.982 E0.01677
G1 X159.028 Y86.287 E0.20847
G1 X158.494 Y86.287 E0.01677
G1 X163.723 Y91.516 E0.23219
G1 X163.723 Y92.050 E0.01677
G1 X157.960 Y86.287 E0.25590
G1 X157.426 Y86.287 E0.01677
G1 X163.723 Y92.584 E0.27961
G1 X163.723 Y93.118 E0.01677
G1 X156.892 Y86.287 E0.30333
G1 X156.358 Y86.287 E0.01677
G1 X163.723 Y93.652 E0.32704
G1 X163.723 Y94.186 E0.01677
G1 X155.824 Y86.287 E0.35075
G1 X155.289 Y86.287 E0.01677
G1 X163.723 Y94.720 E0.37447
G1 X163.723 Y95.254 E0.01677
G1 X154.755 Y86.287 E0.39818
G1 X154.221 Y86.287 E0.01677
G1 X163.723 Y95.788 E0.42189
G1 X163.723 Y96.322 E0.01677
G1 X153.687 Y86.286 E0.44560
G1 X153.153 Y86.286 E0.01677
G1 X163.723 Y96.856 E0.46932
G1 X163.723 Y97.390 E0.01677
G1 X152.619 Y86.286 E0.49303
G1 X152.085 Y86.286 E0.01677
G1 X163.723 Y97.924 E0.51674
M73 Q1 S59
G1 X163.723 Y98.458 E0.01677
G1 X151.551 Y86.286 E0.54046
G1 X151.017 Y86.286 E0.01677
G1 X163.723 Y98.992 E0.56417
G1 X163.723 Y99.526 E0.01677
G1 X150.483 Y86.286 E0.58788
G1 X149.949 Y86.286 E0.01677
G1 X163.723 Y100.060 E0.61160
G1 X163.723 Y100.594 E0.01677
G1 X149.415 Y86.286 E0.63531
G1 X148.881 Y86.286 E0.01677
G1 X163.723 Y101.128 E0.65902
G1 X163.723 Y101.662 E0.01677
G1 X148.347 Y86.286 E0.68274
G1 X147.813 Y86.286 E0.01677
G1 X163.723 Y102.196 E0.70645
G1 X163.723 Y102.730 E0.01677
G1 X147.279 Y86.286 E0.73016
G1 X146.744 Y86.285 E0.01677
G1 X163.723 Y103.264 E0.75388
G1 X163.723 Y103.798 E0.01677
G1 X146.210 Y86.285 E0.77759
G1 X145.676 Y86.285 E0.01677
G1 X163.723 Y104.332 E0.80130
M73 Q2 S59
G1 X163.723 Y104.866 E0.01677
G1 X145.142 Y86.285 E0.82501
M73 P2 R59
G1 X144.608 Y86.285 E0.01677
G1 X163.723 Y105.400 E0.84873
G1 X163.723 Y105.934 E0.01677
G1 X144.074 Y86.285 E0.87244
G1 X143.540 Y86.285 E0.01677
G1 X163.723 Y106.468 E0.89615
G1 X163.723 Y107.002 E0.01677
G1 X143.006 Y86.285 E0.91987
G1 X142.472 Y86.285 E0.01677
G1 X163.723 Y107.536 E0.94358
G1 X163.723 Y108.070 E0.01677
G1 X141.938 Y86.285 E0.96729
G1 X141.404 Y86.285 E0.01677
G1 X163.723 Y108.604 E0.99101
G1 X163.723 Y109.138 E0.01677
G1 X140.870 Y86.285 E1.01472
G1 X140.336 Y86.285 E0.01677
G1 X163.723 Y109.672 E1.03843
G1 X163.723 Y110.206 E0.01677
G1 X139.802 Y86.284 E1.06215
G1 X139.268 Y86.284 E0.01677
G1 X163.723 Y110.740 E1.08586
G1 X163.723 Y111.274 E0.01677
G1 X138.733 Y86.284 E1.10957
G1 X138.199 Y86.284 E0.01677
G1 X163.723 Y111.808 E1.13328
G1 X163.723 Y112.342 E0.01677
G1 X137.665 Y86.284 E1.15700
G1 X137.131 Y86.284 E0.01677
G1 X163.723 Y112.876 E1.18071
G1 X163.723 Y113.410 E0.01677
G1 X136.597 Y86.284 E1.20442
G1 X136.063 Y86.284 E0.01677
G1 X163.723 Y113.944 E1.22814
G1 X163.723 Y114.478 E0.01677
G1 X135.529 Y86.284 E1.25185
G1 X134.995 Y86.284 E0.01677
G1 X163.723 Y115.012 E1.27556
M73 P2 R58
G1 X163.723 Y115.546 E0.01677
G1 X134.461 Y86.284 E1.29928
M73 P3 R58
M73 Q3 S59
G1 X133.927 Y86.284 E0.01677
G1 X163.723 Y116.080 E1.32299
G1 X163.723 Y116.614 E0.01677
G1 X133.393 Y86.284 E1.34670
G1 X132.859 Y86.283 E0.01677
G1 X163.723 Y117.148 E1.37042
G1 X163.723 Y117.682 E0.01677
G1 X132.325 Y86.283 E1.39413
G1 X131.791 Y86.283 E0.01677
G1 X163.723 Y118.216 E1.41784
M73 Q3 S58
G1 X163.723 Y118.750 E0.01677
G1 X131.257 Y86.283 E1.44155
G1 X130.723 Y86.283 E0.01677
G1 X163.723 Y119.284 E1.46527
G1 X163.723 Y119.818 E0.01677
G1 X130.188 Y86.283 E1.48898
G1 X129.654 Y86.283 E0.01677
G1 X163.723 Y120.352 E1.51269
G1 X163.723 Y120.886 E0.01677
G1 X129.120 Y86.283 E1.53641
G1 X128.586 Y86.283 E0.01677
G1 X163.723 Y121.420 E1.56012
G1 X163.723 Y121.954 E0.01677
G1 X128.052 Y86.283 E1.58383
G1 X127.518 Y86.283 E0.01677
G1 X163.723 Y122.488 E1.60755
G1 X163.718 Y123.016 E0.01659
G1 X126.984 Y86.283 E1.63102
G1 X126.450 Y86.283 E0.01677
G1 X163.583 Y123.416 E1.64876
M73 P4 R58
M73 Q4 S58
G1 X163.462 Y123.551 E0.00569
G1 X163.289 Y123.656 E0.00635
G1 X125.916 Y86.282 E1.65941
G1 X125.382 Y86.282 E0.01677
G1 X162.823 Y123.723 E1.66242
G1 X162.289 Y123.723 E0.01677
G1 X124.848 Y86.282 E1.66242
G1 X124.314 Y86.282 E0.01677
G1 X161.755 Y123.723 E1.66242
G1 X161.221 Y123.723 E0.01677
G1 X123.780 Y86.282 E1.66243
G1 X123.246 Y86.282 E0.01677
G1 X160.687 Y123.723 E1.66243
G1 X160.153 Y123.723 E0.01677
G1 X122.712 Y86.282 E1.66243
G1 X122.177 Y86.282 E0.01677
G1 X159.619 Y123.723 E1.66244
M73 P4 R57
G1 X159.085 Y123.723 E0.01677
G1 X121.643 Y86.282 E1.66244
G1 X121.109 Y86.282 E0.01677
G1 X158.551 Y123.723 E1.66244
G1 X158.017 Y123.723 E0.01677
G1 X120.575 Y86.282 E1.66245
G1 X120.041 Y86.282 E0.01677
G1 X157.483 Y123.723 E1.66245
G1 X156.949 Y123.723 E0.01677
G1 X119.507 Y86.282 E1.66245
M73 Q4 S57
G1 X118.973 Y86.281 E0.01677
G1 X156.415 Y123.723 E1.66246
M73 P5 R57
M73 Q5 S57
G1 X155.881 Y123.723 E0.01677
G1 X118.439 Y86.281 E1.66246
G1 X117.905 Y86.281 E0.01677
G1 X155.347 Y123.723 E1.66246
G1 X154.813 Y123.723 E0.01677
G1 X117.371 Y86.281 E1.66247
G1 X116.837 Y86.281 E0.01677
G1 X154.279 Y123.723 E1.66247
G1 X153.745 Y123.723 E0.01677
G1 X116.303 Y86.281 E1.66247
G1 X115.769 Y86.281 E0.01677
G1 X153.211 Y123.723 E1.66248
G1 X152.677 Y123.723 E0.01677
G1 X115.235 Y86.281 E1.66248
G1 X114.701 Y86.281 E0.01677
G1 X152.143 Y123.723 E1.66248
G1 X151.609 Y123.723 E0.01677
G1 X114.167 Y86.281 E1.66249
G1 X113.632 Y86.281 E0.01677
G1 X151.075 Y123.723 E1.66249
G1 X150.541 Y123.723 E0.01677
G1 X113.098 Y86.281 E1.66249
G1 X112.564 Y86.281 E0.01677
G1 X150.007 Y123.723 E1.66250
G1 X149.473 Y123.723 E0.01677
G1 X112.030 Y86.280 E1.66250
M73 P6 R57
M73 Q6 S57
G1 X111.496 Y86.280 E0.01677
G1 X148.939 Y123.723 E1.66250
G1 X148.405 Y123.723 E0.01677
G1 X110.962 Y86.280 E1.66251
G1 X110.428 Y86.280 E0.01677
