; generated by PrusaSlicer 2.3.3+win64 on 2021-12-03 at 19:33:08 UTC

; 

; external perimeters extrusion width = 0.45mm
; perimeters extrusion width = 0.45mm
; infill extrusion width = 0.45mm
; solid infill extrusion width = 0.45mm
; top infill extrusion width = 0.40mm
; first layer extrusion width = 0.42mm

M73 P0 R53
M73 Q0 S53
M201 X1000 Y1000 Z200 E5000 ; sets maximum accelerations, mm/sec^2
M203 X200 Y200 Z12 E120 ; sets maximum feedrates, mm/sec
M204 P1250 R1250 T1250 ; sets acceleration (P, T) and retract acceleration (R), mm/sec^2
M205 X8.00 Y8.00 Z0.40 E4.50 ; sets the jerk limits, mm/sec
M205 S0 T0 ; sets the minimum extruding and travel feed rate, mm/sec
M107
;TYPE:Custom
M862.3 P "MK3S" ; printer model check
M862.1 P0.4 ; nozzle diameter check
M115 U3.10.0 ; tell printer latest fw version
G90 ; use absolute coordinates
M83 ; extruder relative mode
M104 S215 ; set extruder temp
M140 S60 ; set bed temp
M190 S60 ; wait for bed temp
M109 S215 ; wait for extruder temp
G28 W ; home all without mesh bed level
G80 ; mesh bed leveling
G1 Y-3.0 F1000.0 ; go outside print area
G92 E0.0
G1 X60.0 E9.0 F1000.0 ; intro line
M73 P0 R52
G1 X100.0 E12.5 F1000.0 ; intro line
G92 E0.0
M221 S95

; Don't change E values below. Excessive value can damage the printer.
M907 E430 ; set extruder motor current
G21 ; set units to millimeters
G90 ; use absolute coordinates
M83 ; use relative distances for extrusion
M900 K0.05 ; Filament gcode LA 1.5
M900 K30 ; Filament gcode LA 1.0
;LAYER_CHANGE
;Z:0.2
;HEIGHT:0.2
;BEFORE_LAYER_CHANGE
G92 E0.0
;0.2


G1 E-0.80000 F2100.000
G1 Z0.400 F10800.000
;AFTER_LAYER_CHANGE
;0.2
G1 X94.341 Y85.216
G1 Z0.200
G1 E0.80000 F2100.000
M204 S1000
;TYPE:Skirt
;WIDTH:0.42
G1 F1200.000
G1 X94.987 Y85.123 E0.02048
G1 X155.004 Y85.123 E1.88177
G1 X155.895 Y85.298 E0.02849
G1 X156.656 Y85.795 E0.02849
G1 X157.175 Y86.541 E0.02849
G1 X157.376 Y87.427 E0.02849
G1 X157.376 Y122.572 E1.10197
M73 Q0 S52
G1 X157.286 Y123.151 E0.01835
G1 X157.060 Y123.686 E0.01823
G1 X156.708 Y124.153 E0.01835
G1 X156.256 Y124.518 E0.01823
G1 X155.659 Y124.784 E0.02048
G1 X155.013 Y124.877 E0.02048
G1 X94.973 Y124.877 E1.88249
G1 X94.386 Y124.796 E0.01858
G1 X93.834 Y124.571 E0.01870
G1 X93.358 Y124.219 E0.01858
G1 X92.982 Y123.756 E0.01870
G1 X92.718 Y123.166 E0.02024
G1 X92.623 Y122.524 E0.02036
G1 X92.623 Y87.454 E1.09958
G1 X92.708 Y86.871 E0.01846
G1 X92.932 Y86.327 E0.01846
G1 X93.287 Y85.852 E0.01858
G1 X93.744 Y85.482 E0.01846
G1 X94.286 Y85.240 E0.01860
; printing object RilievoBianco_Sopra v1.stl id:0 copy 0
;WIPE_START
G1 F8640.000
G1 X94.987 Y85.123 E-0.16417
G1 X97.568 Y85.123 E-0.59583
;WIPE_END
G1 E-0.04000 F2100.000
G1 Z0.600 F10800.000
G1 X126.620 Y98.625
G1 Z0.200
G1 E0.80000 F2100.000
;TYPE:External perimeter
G1 F1200.000
G1 X126.868 Y98.452 E0.00950
G1 X126.939 Y98.486 E0.00246
G1 X126.999 Y98.551 E0.00278
G1 X127.037 Y98.629 E0.00270
G1 X126.680 Y98.626 E0.01120
G1 X126.890 Y98.488 F10800.000
;WIPE_START
G1 F8640.000
G1 X126.868 Y98.452 E-0.05922
G1 X126.939 Y98.486 E-0.01812
G1 X126.999 Y98.551 E-0.02044
G1 X127.037 Y98.629 E-0.01988
G1 X126.680 Y98.626 E-0.08250
;WIPE_END
G1 E-0.59983 F2100.000
G1 Z0.600 F10800.000
G1 X125.968 Y94.727
G1 Z0.200
G1 E0.80000 F2100.000
G1 F1200.000
G1 X125.550 Y94.724 E0.01308
G1 X125.799 Y94.550 E0.00950
G1 X125.869 Y94.585 E0.00246
G1 X125.941 Y94.673 E0.00357
G1 X125.583 Y94.618 F10800.000
;WIPE_START
G1 F8640.000
G1 X125.550 Y94.724 E-0.09101
G1 X125.799 Y94.550 E-0.06998
G1 X125.869 Y94.585 E-0.01812
G1 X125.941 Y94.673 E-0.02627
;WIPE_END
G1 E-0.59462 F2100.000
G1 Z0.600 F10800.000
G1 X129.273 Y94.716
G1 Z0.200
G1 E0.80000 F2100.000
G1 F1200.000
G1 X129.508 Y94.559 E0.00884
G1 X129.618 Y94.649 E0.00447
G1 X129.658 Y94.731 E0.00285
G1 X129.331 Y94.731 E0.01026
G1 X129.527 Y94.592 F10800.000
;WIPE_START
G1 F8640.000
G1 X129.508 Y94.559 E-0.05690
G1 X129.618 Y94.649 E-0.03289
G1 X129.658 Y94.731 E-0.02098
G1 X129.331 Y94.731 E-0.07552
;WIPE_END
G1 E-0.61371 F2100.000
G1 Z0.600 F10800.000
G1 X131.692 Y91.561
G1 Z0.200
G1 E0.80000 F2100.000
G1 F1200.000
G1 X131.629 Y91.448 E0.00404
G1 X131.929 Y91.492 E0.00948
G1 X131.770 Y91.561 E0.00542
G1 X131.781 Y91.589 E0.00093
G1 X131.747 Y91.585 E0.00108
G1 X131.716 Y91.434 F10800.000
G1 X131.183 Y91.285
G1 F1200.000
G1 X130.906 Y91.323 E0.00876
G1 X130.905 Y90.963 E0.01127
G1 X130.932 Y91.033 E0.00235
G1 X131.038 Y91.182 E0.00573
G1 X131.134 Y91.250 E0.00369
G1 X130.908 Y91.237 F10800.000
;WIPE_START
G1 F8640.000
G1 X130.906 Y91.323 E-0.05521
G1 X130.905 Y90.963 E-0.08297
G1 X130.932 Y91.033 E-0.01731
G1 X131.038 Y91.182 E-0.04222
G1 X131.134 Y91.250 E-0.02718
;WIPE_END
G1 E-0.57510 F2100.000
G1 Z0.600 F10800.000
G1 X130.128 Y90.039
G1 Z0.200
G1 E0.80000 F2100.000
G1 F1200.000
G1 X129.886 Y90.001 E0.00768
G1 X129.687 Y90.020 E0.00626
G1 X129.728 Y89.966 E0.00213
G1 X129.879 Y89.943 E0.00478
G1 X130.010 Y89.958 E0.00414
G1 X130.087 Y89.995 E0.00267
G1 X129.889 Y89.984 F10800.000
G1 X129.223 Y90.266
G1 F1200.000
G1 X129.141 Y90.352 E0.00373
G1 X129.030 Y90.526 E0.00648
G1 X128.954 Y90.710 E0.00625
G1 X128.954 Y90.306 E0.01269
G1 X129.164 Y90.274 E0.00664
G1 X129.181 Y90.154 F10800.000
;WIPE_START
G1 F8640.000
G1 X129.141 Y90.352 E-0.01858
G1 X129.030 Y90.526 E-0.04770
G1 X128.954 Y90.710 E-0.04602
G1 X128.954 Y90.306 E-0.09346
G1 X129.164 Y90.274 E-0.04891
;WIPE_END
G1 E-0.54533 F2100.000
G1 Z0.600 F10800.000
G1 X127.524 Y90.829
G1 Z0.200
G1 E0.80000 F2100.000
G1 F1200.000
G1 X127.130 Y90.816 E0.01236
G1 X127.373 Y90.657 E0.00910
G1 X127.424 Y90.683 E0.00177
G1 X127.498 Y90.775 E0.00371
G1 X127.148 Y90.710 F10800.000
;WIPE_START
G1 F8640.000
G1 X127.130 Y90.816 E-0.08538
G1 X127.373 Y90.657 E-0.06702
G1 X127.424 Y90.683 E-0.01303
G1 X127.498 Y90.775 E-0.02734
;WIPE_END
G1 E-0.60723 F2100.000
G1 Z0.600 F10800.000
G1 X123.639 Y90.829
G1 Z0.200
G1 E0.80000 F2100.000
G1 F1200.000
G1 X123.212 Y90.829 E0.01339
G1 X123.482 Y90.656 E0.01006
G1 X123.576 Y90.715 E0.00347
G1 X123.613 Y90.775 E0.00223
G1 X123.255 Y90.719 F10800.000
;WIPE_START
G1 F8640.000
G1 X123.212 Y90.829 E-0.09333
G1 X123.482 Y90.656 E-0.07409
G1 X123.576 Y90.715 E-0.02555
G1 X123.613 Y90.775 E-0.01645
;WIPE_END
G1 E-0.59058 F2100.000
G1 Z0.600 F10800.000
G1 X122.360 Y90.697
G1 Z0.200
G1 E0.80000 F2100.000
G1 F1200.000
G1 X122.321 Y90.862 E0.00533
G1 X122.304 Y91.102 E0.00755
G1 X122.321 Y91.349 E0.00776
G1 X122.373 Y91.575 E0.00725
G1 X122.219 Y91.575 E0.00484
G1 X122.222 Y90.697 E0.02751
G1 X122.300 Y90.697 E0.00245
G1 X122.234 Y90.583 F10800.000
;WIPE_START
G1 F8640.000
G1 X122.321 Y90.862 E-0.03846
G1 X122.304 Y91.102 E-0.05558
G1 X122.321 Y91.349 E-0.05716
G1 X122.373 Y91.575 E-0.05341
G1 X122.219 Y91.575 E-0.03565
G1 X122.222 Y90.697 E-0.20262
G1 X122.300 Y90.697 E-0.01806
;WIPE_END
G1 E-0.33906 F2100.000
G1 Z0.600 F10800.000
G1 X120.325 Y98.500
G1 Z0.200
G1 E0.80000 F2100.000
G1 F1200.000
G1 X120.285 Y98.666 E0.00533
G1 X120.269 Y98.906 E0.00755
G1 X120.286 Y99.153 E0.00776
G1 X120.338 Y99.378 E0.00725
G1 X120.183 Y99.378 E0.00484
G1 X120.186 Y98.501 E0.02751
G1 X120.265 Y98.500 E0.00245
G1 X120.198 Y98.387 F10800.000
G1 X121.177 Y98.633
G1 F1200.000
G1 X121.447 Y98.459 E0.01006
G1 X121.540 Y98.518 E0.00347
G1 X121.604 Y98.633 E0.00411
G1 X121.237 Y98.633 E0.01151
G1 X121.461 Y98.484 F10800.000
;WIPE_START
G1 F8640.000
G1 X121.447 Y98.459 E-0.06289
G1 X121.540 Y98.518 E-0.02555
G1 X121.604 Y98.633 E-0.03027
G1 X121.237 Y98.633 E-0.08474
;WIPE_END
G1 E-0.59655 F2100.000
G1 Z0.600 F10800.000
G1 X120.535 Y94.731
G1 Z0.200
G1 E0.80000 F2100.000
G1 F1200.000
G1 X120.205 Y94.731 E0.01033
G1 X120.149 Y94.716 E0.00183
G1 X120.383 Y94.559 E0.00882
G1 X120.471 Y94.616 E0.00331
G1 X120.508 Y94.677 E0.00223
G1 X120.218 Y94.639 F10800.000
;WIPE_START
G1 F8640.000
G1 X120.205 Y94.731 E-0.07105
G1 X120.149 Y94.716 E-0.01347
G1 X120.383 Y94.559 E-0.06493
G1 X120.471 Y94.616 E-0.02439
G1 X120.508 Y94.677 E-0.01645
;WIPE_END
G1 E-0.60971 F2100.000
G1 Z0.600 F10800.000
G1 X117.172 Y95.394
G1 Z0.200
G1 E0.80000 F2100.000
G1 F1200.000
G1 X117.013 Y95.460 E0.00539
G1 X117.026 Y95.490 E0.00105
G1 X116.994 Y95.487 E0.00102
G1 X116.937 Y95.463 E0.00194
G1 X116.874 Y95.350 E0.00404
G1 X117.113 Y95.385 E0.00756
G1 X117.011 Y95.454 F10800.000
;WIPE_START
G1 F8640.000
G1 X117.013 Y95.460 E-0.02867
G1 X117.026 Y95.490 E-0.00771
G1 X116.994 Y95.487 E-0.00752
G1 X116.937 Y95.463 E-0.01432
G1 X116.874 Y95.350 E-0.02973
G1 X117.113 Y95.385 E-0.05570
;WIPE_END
G1 E-0.65634 F2100.000
G1 Z0.600 F10800.000
G1 X112.761 Y96.135
G1 Z0.200
G1 E0.80000 F2100.000
G1 F1200.000
G1 X112.761 Y96.148 E0.00040
G1 X112.544 Y96.156 E0.00680
G1 X112.543 Y96.135 E0.00067
G1 X112.701 Y96.135 E0.00495
G1 X112.755 Y96.146 F10800.000
;WIPE_START
G1 F8640.000
G1 X112.761 Y96.148 E-0.01416
G1 X112.544 Y96.156 E-0.05010
G1 X112.543 Y96.135 E-0.00494
G1 X112.701 Y96.135 E-0.03644
;WIPE_END
G1 E-0.69436 F2100.000
G1 Z0.600 F10800.000
G1 X109.031 Y95.694
G1 Z0.200
G1 E0.80000 F2100.000
G1 F1200.000
G1 X108.949 Y95.998 E0.00988
G1 X108.887 Y96.077 E0.00314
G1 X108.780 Y96.131 E0.00376
G1 X108.675 Y96.143 E0.00332
G1 X108.577 Y96.028 E0.00473
G1 X108.434 Y96.012 E0.00450
G1 X108.396 Y95.958 E0.00207
G1 X108.418 Y95.915 E0.00152
G1 X108.525 Y95.827 E0.00434
G1 X108.973 Y95.709 E0.01452
G1 X108.857 Y95.957 F10800.000
;WIPE_START
G1 F8640.000
G1 X108.949 Y95.998 E-0.06699
G1 X108.887 Y96.077 E-0.02311
G1 X108.780 Y96.131 E-0.02770
G1 X108.675 Y96.143 E-0.02446
G1 X108.577 Y96.028 E-0.03483
G1 X108.434 Y96.012 E-0.03316
G1 X108.396 Y95.958 E-0.01525
G1 X108.418 Y95.915 E-0.01116
G1 X108.525 Y95.827 E-0.03198
G1 X108.973 Y95.709 E-0.10692
;WIPE_END
G1 E-0.42444 F2100.000
G1 Z0.600 F10800.000
G1 X130.716 Y98.786
G1 Z0.200
G1 E0.80000 F2100.000
G1 F1200.000
G1 X130.673 Y99.521 E0.02308
G1 X131.497 Y99.509 E0.02583
G1 X131.386 Y99.808 E0.01003
G1 X131.319 Y99.908 E0.00376
G1 X131.063 Y99.986 E0.00837
G1 X130.761 Y99.964 E0.00952
G1 X130.540 Y99.875 E0.00746
G1 X130.466 Y99.813 E0.00301
G1 X130.358 Y99.657 E0.00597
G1 X130.292 Y99.473 E0.00613
G1 X130.267 Y99.264 E0.00660
G1 X130.278 Y98.998 E0.00834
G1 X130.297 Y98.907 E0.00292
G1 X130.422 Y98.663 E0.00860
G1 X130.542 Y98.571 E0.00473
G1 X130.727 Y98.505 E0.00615
G1 X130.921 Y98.483 E0.00612
G1 X131.091 Y98.499 E0.00535
G1 X131.200 Y98.532 E0.00356
G1 X131.316 Y98.704 E0.00653
G1 X131.316 Y98.763 E0.00185
G1 X131.247 Y98.786 E0.00228
G1 X130.776 Y98.786 E0.01478
G1 X130.316 Y98.776 F10800.000
;WIPE_START
G1 F8640.000
G1 X130.673 Y99.521 E-0.17131
G1 X131.497 Y99.509 E-0.19020
G1 X131.386 Y99.808 E-0.07384
G1 X131.319 Y99.908 E-0.02768
G1 X131.063 Y99.986 E-0.06167
G1 X130.761 Y99.964 E-0.07009
G1 X130.540 Y99.875 E-0.05493
G1 X130.466 Y99.813 E-0.02214
G1 X130.358 Y99.657 E-0.04394
G1 X130.294 Y99.477 E-0.04421
;WIPE_END
G1 E-0.04000 F2100.000
G1 Z0.600 F10800.000
G1 X132.183 Y98.814
G1 Z0.200
G1 E0.80000 F2100.000
G1 F1200.000
G1 X132.297 Y98.986 E0.00647
G1 X132.443 Y99.088 E0.00557
G1 X132.183 Y99.124 E0.00821
G1 X132.183 Y98.874 E0.00782
G1 X131.978 Y98.839 F10800.000
G1 X132.889 Y99.252
G1 F1200.000
G1 X133.188 Y99.296 E0.00948
G1 X133.029 Y99.365 E0.00542
G1 X133.041 Y99.392 E0.00093
G1 X132.951 Y99.364 E0.00293
G1 X132.910 Y99.308 E0.00219
G1 X133.173 Y99.355 F10800.000
;WIPE_START
G1 F8640.000
G1 X133.188 Y99.296 E-0.06417
G1 X133.029 Y99.365 E-0.03993
G1 X133.041 Y99.392 E-0.00683
G1 X132.951 Y99.364 E-0.02161
G1 X132.910 Y99.308 E-0.01612
;WIPE_END
G1 E-0.65134 F2100.000
G1 Z0.600 F10800.000
G1 X138.775 Y94.718
G1 Z0.200
G1 E0.80000 F2100.000
G1 F1200.000
G1 X139.020 Y94.559 E0.00914
G1 X139.131 Y94.649 E0.00448
G1 X139.171 Y94.731 E0.00285
G1 X138.834 Y94.731 E0.01056
G1 X139.038 Y94.592 F10800.000
;WIPE_START
G1 F8640.000
G1 X139.020 Y94.559 E-0.05843
G1 X139.131 Y94.649 E-0.03298
G1 X139.171 Y94.731 E-0.02098
G1 X138.834 Y94.731 E-0.07777
;WIPE_END
G1 E-0.60984 F2100.000
G1 Z0.600 F10800.000
G1 X138.409 Y91.530
G1 Z0.200
G1 E0.80000 F2100.000
G1 F1200.000
G1 X138.272 Y91.485 E0.00454
G1 X138.220 Y91.413 E0.00278
G1 X138.189 Y91.123 E0.00914
G1 X138.214 Y90.901 E0.00699
G1 X138.269 Y90.779 E0.00423
G1 X138.387 Y90.715 E0.00419
G1 X138.418 Y90.741 E0.00129
G1 X138.480 Y90.749 E0.00195
G1 X138.507 Y90.779 E0.00126
G1 X138.596 Y91.107 E0.01067
G1 X138.995 Y91.056 E0.01260
G1 X139.002 Y91.275 E0.00689
G1 X138.588 Y91.211 E0.01315
G1 X138.482 Y91.498 E0.00958
G1 X138.464 Y91.506 E0.00060
G1 X138.320 Y91.416 F10800.000
;WIPE_START
G1 F8640.000
G1 X138.272 Y91.485 E-0.04477
G1 X138.220 Y91.413 E-0.02049
G1 X138.189 Y91.123 E-0.06732
G1 X138.214 Y90.901 E-0.05150
G1 X138.269 Y90.779 E-0.03112
G1 X138.387 Y90.715 E-0.03084
G1 X138.418 Y90.741 E-0.00952
G1 X138.480 Y90.749 E-0.01438
G1 X138.507 Y90.779 E-0.00927
G1 X138.596 Y91.107 E-0.07857
G1 X138.995 Y91.056 E-0.09278
G1 X139.002 Y91.275 E-0.05077
G1 X138.588 Y91.211 E-0.09683
G1 X138.482 Y91.498 E-0.07055
G1 X138.464 Y91.506 E-0.00441
;WIPE_END
G1 E-0.12688 F2100.000
G1 Z0.600 F10800.000
G1 X122.746 Y97.401
G1 Z0.200
G1 E0.80000 F2100.000
;TYPE:Perimeter
G1 F1200.000
G1 X122.746 Y98.126 E0.02274
G1 X122.644 Y97.932 E0.00688
G1 X122.381 Y97.563 E0.01421
G1 X122.141 Y97.401 E0.00907
G1 X122.686 Y97.401 E0.01710
;WIPE_START
G1 F8640.000
G1 X122.746 Y98.126 E-0.16804
G1 X122.644 Y97.932 E-0.05067
G1 X122.381 Y97.563 E-0.10465
G1 X122.141 Y97.401 E-0.06679
G1 X122.686 Y97.401 E-0.12594
;WIPE_END
G1 E-0.28391 F2100.000
G1 Z0.600 F10800.000
G1 X121.677 Y97.291
G1 Z0.200
G1 E0.80000 F2100.000
G1 F1200.000
G1 X121.187 Y97.233 E0.01548
G1 X120.870 Y97.456 E0.01214
G1 X120.714 Y97.526 E0.00538
G1 X120.073 Y97.325 E0.02104
G1 X119.718 Y97.464 E0.01196
G1 X118.577 Y97.392 E0.03585
G1 X118.577 Y97.371 E0.00066
G1 X118.241 Y97.372 E0.01053
G1 X118.241 Y97.392 E0.00065
G1 X117.082 Y97.464 E0.03640
G1 X117.082 Y97.487 E0.00071
G1 X116.947 Y97.389 E0.00521
G1 X116.476 Y97.292 E0.01508
G1 X116.121 Y97.349 E0.01127
G1 X115.819 Y97.476 E0.01027
G1 X115.819 Y97.429 E0.00149
G1 X113.468 Y97.429 E0.07373
G1 X113.448 Y97.487 E0.00193
G1 X112.796 Y97.295 E0.02132
G1 X113.008 Y97.183 E0.00752
G1 X113.203 Y97.352 E0.00810
G1 X114.001 Y96.901 E0.02873
G1 X113.926 Y96.512 E0.01243
G1 X116.740 Y96.512 E0.08824
G1 X117.143 Y96.642 E0.01326
G1 X117.589 Y96.545 E0.01434
G1 X117.759 Y96.457 E0.00598
G1 X117.759 Y96.512 E0.00173
G1 X118.690 Y96.512 E0.02919
G1 X118.900 Y96.710 E0.00906
G1 X119.590 Y96.394 E0.02378
G1 X119.796 Y96.480 E0.00701
G1 X120.069 Y96.705 E0.01109
G1 X120.799 Y96.637 E0.02298
G1 X121.151 Y96.485 E0.01204
G1 X121.425 Y96.246 E0.01139
G1 X121.623 Y95.974 E0.01055
G1 X121.677 Y95.854 E0.00413
G1 X121.677 Y97.231 E0.04319
;WIPE_START
G1 F8640.000
G1 X121.187 Y97.233 E-0.11323
G1 X120.870 Y97.456 E-0.08939
G1 X120.714 Y97.526 E-0.03960
G1 X120.073 Y97.325 E-0.15492
G1 X119.718 Y97.464 E-0.08806
G1 X118.577 Y97.392 E-0.26400
G1 X118.577 Y97.371 E-0.00489
G1 X118.551 Y97.371 E-0.00591
;WIPE_END
G1 E-0.04000 F2100.000
G1 Z0.600 F10800.000
G1 X124.185 Y97.236
G1 Z0.200
G1 E0.80000 F2100.000
G1 F1200.000
G1 X124.357 Y97.154 E0.00597
G1 X124.664 Y96.903 E0.01244
G1 X124.845 Y96.627 E0.01034
G1 X124.924 Y96.356 E0.00886
G1 X125.026 Y96.444 E0.00422
G1 X125.330 Y96.567 E0.01029
G1 X125.749 Y96.655 E0.01341
G1 X126.185 Y96.472 E0.01484
G1 X127.481 Y96.577 E0.04077
G1 X127.539 Y96.372 E0.00669
G1 X127.599 Y96.579 E0.00675
G1 X128.878 Y96.471 E0.04024
G1 X129.353 Y96.665 E0.01610
G1 X129.935 Y96.483 E0.01911
G1 X129.816 Y97.275 E0.02512
G1 X130.353 Y97.275 E0.01684
G1 X129.930 Y97.416 E0.01398
G1 X129.662 Y97.581 E0.00988
G1 X129.445 Y97.766 E0.00894
G1 X129.261 Y97.983 E0.00893
G1 X129.102 Y98.243 E0.00956
G1 X129.031 Y98.438 E0.00650
G1 X128.914 Y97.110 E0.04179
G1 X127.486 Y97.544 E0.04680
G1 X127.397 Y97.475 E0.00352
G1 X127.139 Y97.339 E0.00914
G1 X126.809 Y97.271 E0.01057
G1 X126.481 Y97.301 E0.01033
G1 X126.111 Y97.406 E0.01206
G1 X125.776 Y97.669 E0.01335
G1 X125.679 Y97.850 E0.00644
G1 X125.401 Y97.542 E0.01299
G1 X125.099 Y97.375 E0.01082
G1 X124.796 Y97.286 E0.00992
G1 X124.488 Y97.238 E0.00977
G1 X124.245 Y97.236 E0.00761
