; generated by PrusaSlicer 2.3.3+win64 on 2021-12-03 at 21:06:59 UTC

; 

; external perimeters extrusion width = 0.45mm
; perimeters extrusion width = 0.45mm
; infill extrusion width = 0.45mm
; solid infill extrusion width = 0.45mm
; top infill extrusion width = 0.40mm
; first layer extrusion width = 0.42mm

M73 P0 R37
M73 Q0 S37
M201 X1000 Y1000 Z200 E5000 ; sets maximum accelerations, mm/sec^2
M203 X200 Y200 Z12 E120 ; sets maximum feedrates, mm/sec
M204 P1250 R1250 T1250 ; sets acceleration (P, T) and retract acceleration (R), mm/sec^2
M205 X8.00 Y8.00 Z0.40 E4.50 ; sets the jerk limits, mm/sec
M205 S0 T0 ; sets the minimum extruding and travel feed rate, mm/sec
M107
;TYPE:Custom
M862.3 P "MK3S" ; printer model check
M862.1 P0.4 ; nozzle diameter check
M115 U3.10.0 ; tell printer latest fw version
G90 ; use absolute coordinates
M83 ; extruder relative mode
M104 S215 ; set extruder temp
M140 S60 ; set bed temp
M190 S60 ; wait for bed temp
M109 S215 ; wait for extruder temp
G28 W ; home all without mesh bed level
G80 ; mesh bed leveling
G1 Y-3.0 F1000.0 ; go outside print area
G92 E0.0
G1 X60.0 E9.0 F1000.0 ; intro line
G1 X100.0 E12.5 F1000.0 ; intro line
G92 E0.0
M221 S95

; Don't change E values below. Excessive value can damage the printer.
M907 E430 ; set extruder motor current
G21 ; set units to millimeters
G90 ; use absolute coordinates
M83 ; use relative distances for extrusion
M900 K0.05 ; Filament gcode LA 1.5
M900 K30 ; Filament gcode LA 1.0
;LAYER_CHANGE
;Z:0.2
;HEIGHT:0.2
;BEFORE_LAYER_CHANGE
G92 E0.0
;0.2


G1 E-0.80000 F2100.000
G1 Z0.400 F10800.000
;AFTER_LAYER_CHANGE
;0.2
G1 X94.341 Y85.216
G1 Z0.200
G1 E0.80000 F2100.000
M204 S1000
;TYPE:Skirt
;WIDTH:0.42
G1 F1200.000
G1 X94.987 Y85.123 E0.02048
G1 X155.004 Y85.123 E1.88177
M73 P0 R36
G1 X155.895 Y85.298 E0.02849
G1 X156.656 Y85.795 E0.02849
G1 X157.175 Y86.541 E0.02849
G1 X157.376 Y87.427 E0.02849
G1 X157.376 Y122.572 E1.10197
G1 X157.286 Y123.151 E0.01835
G1 X157.060 Y123.686 E0.01823
G1 X156.708 Y124.153 E0.01835
G1 X156.256 Y124.518 E0.01823
G1 X155.659 Y124.784 E0.02048
G1 X155.013 Y124.877 E0.02048
G1 X94.973 Y124.877 E1.88249
G1 X94.386 Y124.796 E0.01858
G1 X93.834 Y124.571 E0.01870
G1 X93.358 Y124.219 E0.01858
G1 X92.982 Y123.756 E0.01870
G1 X92.718 Y123.166 E0.02024
G1 X92.623 Y122.524 E0.02036
G1 X92.623 Y87.454 E1.09958
M73 Q0 S36
G1 X92.708 Y86.871 E0.01846
G1 X92.932 Y86.327 E0.01846
G1 X93.287 Y85.852 E0.01858
G1 X93.744 Y85.482 E0.01846
G1 X94.286 Y85.240 E0.01860
; printing object RilievoBianco_Sotto v3.stl id:0 copy 0
;WIPE_START
G1 F8640.000
G1 X94.987 Y85.123 E-0.16417
G1 X97.568 Y85.123 E-0.59583
;WIPE_END
G1 E-0.04000 F2100.000
G1 Z0.600 F10800.000
G1 X98.731 Y115.616
G1 Z0.200
G1 E0.80000 F2100.000
;TYPE:External perimeter
G1 F1200.000
G1 X99.269 Y115.616 E0.01685
G1 X99.797 Y115.715 E0.01685
G1 X100.298 Y115.909 E0.01685
G1 X100.755 Y116.192 E0.01685
G1 X101.152 Y116.554 E0.01685
G1 X101.476 Y116.983 E0.01685
G1 X101.715 Y117.464 E0.01685
G1 X101.862 Y117.981 E0.01685
G1 X101.908 Y118.473 E0.01550
G1 X101.863 Y119.049 E0.01813
G1 X101.715 Y119.568 E0.01689
G1 X101.476 Y120.049 E0.01685
G1 X101.152 Y120.477 E0.01685
G1 X100.755 Y120.839 E0.01685
G1 X100.298 Y121.122 E0.01685
G1 X99.797 Y121.316 E0.01685
G1 X99.269 Y121.415 E0.01685
G1 X98.731 Y121.415 E0.01685
G1 X98.203 Y121.316 E0.01685
G1 X97.702 Y121.122 E0.01685
G1 X97.245 Y120.839 E0.01685
G1 X96.848 Y120.477 E0.01685
G1 X96.524 Y120.049 E0.01685
G1 X96.285 Y119.568 E0.01685
G1 X96.138 Y119.051 E0.01685
G1 X96.092 Y118.559 E0.01550
G1 X96.137 Y117.982 E0.01813
G1 X96.285 Y117.464 E0.01689
G1 X96.524 Y116.983 E0.01685
G1 X96.848 Y116.554 E0.01685
G1 X97.245 Y116.192 E0.01685
G1 X97.702 Y115.909 E0.01685
G1 X98.203 Y115.715 E0.01685
G1 X98.672 Y115.627 E0.01497
G1 X98.899 Y115.253 F10800.000
;WIPE_START
G1 F8640.000
G1 X99.269 Y115.616 E-0.13771
G1 X99.797 Y115.715 E-0.12407
G1 X100.298 Y115.909 E-0.12407
G1 X100.755 Y116.192 E-0.12407
G1 X101.152 Y116.554 E-0.12407
G1 X101.476 Y116.983 E-0.12407
G1 X101.479 Y116.990 E-0.00194
;WIPE_END
G1 E-0.04000 F2100.000
G1 Z0.600 F10800.000
G1 X96.164 Y120.823
G1 Z0.200
G1 E0.80000 F2100.000
;TYPE:Perimeter
G1 F1200.000
G1 X96.288 Y120.988 E0.00647
G1 X96.670 Y121.336 E0.01621
G1 X96.164 Y121.336 E0.01587
G1 X96.164 Y120.883 E0.01420
G1 X95.787 Y121.713 F10800.000
G1 F1200.000
G1 X95.787 Y119.196 E0.07892
G1 X95.932 Y119.704 E0.01658
G1 X96.202 Y120.248 E0.01904
G1 X96.568 Y120.733 E0.01904
G1 X97.017 Y121.142 E0.01904
G1 X97.533 Y121.461 E0.01904
G1 X98.100 Y121.681 E0.01904
G1 X98.272 Y121.713 E0.00552
G1 X95.847 Y121.713 E0.07605
;WIPE_START
G1 F8640.000
G1 X95.787 Y119.196 E-0.58134
G1 X95.932 Y119.704 E-0.12206
G1 X96.041 Y119.924 E-0.05659
;WIPE_END
G1 E-0.04000 F2100.000
G1 Z0.600 F10800.000
G1 X101.330 Y121.336
G1 Z0.200
G1 E0.80000 F2100.000
G1 F1200.000
G1 X101.712 Y120.988 E0.01621
G1 X102.120 Y120.447 E0.02123
G1 X102.421 Y119.841 E0.02123
G1 X102.609 Y119.183 E0.02145
G1 X102.665 Y118.467 E0.02251
G1 X102.607 Y117.842 E0.01971
G1 X102.421 Y117.190 E0.02123
G1 X102.120 Y116.584 E0.02123
G1 X101.712 Y116.044 E0.02123
G1 X101.211 Y115.588 E0.02123
G1 X100.635 Y115.231 E0.02123
G1 X100.004 Y114.987 E0.02123
G1 X99.339 Y114.862 E0.02123
G1 X98.661 Y114.862 E0.02123
G1 X97.996 Y114.987 E0.02123
G1 X97.365 Y115.231 E0.02123
G1 X96.789 Y115.588 E0.02123
G1 X96.288 Y116.044 E0.02123
G1 X96.164 Y116.208 E0.00647
G1 X96.164 Y88.664 E0.86363
M73 P1 R36
M73 Q1 S36
G1 X153.836 Y88.664 E1.80826
G1 X153.836 Y121.336 E1.02440
G1 X101.390 Y121.336 E1.64442
;WIPE_START
G1 F8640.000
G1 X101.712 Y120.988 E-0.10950
G1 X102.120 Y120.447 E-0.15634
G1 X102.421 Y119.841 E-0.15634
G1 X102.609 Y119.183 E-0.15793
G1 X102.665 Y118.467 E-0.16580
G1 X102.659 Y118.407 E-0.01408
;WIPE_END
G1 E-0.04000 F2100.000
G1 Z0.600 F10800.000
G1 X99.728 Y121.713
G1 Z0.200
G1 E0.80000 F2100.000
G1 F1200.000
G1 X99.900 Y121.681 E0.00552
G1 X100.467 Y121.461 E0.01904
G1 X100.983 Y121.142 E0.01904
G1 X101.432 Y120.733 E0.01904
G1 X101.798 Y120.248 E0.01904
G1 X102.068 Y119.704 E0.01904
G1 X102.236 Y119.116 E0.01917
G1 X102.286 Y118.470 E0.02032
G1 X102.234 Y117.911 E0.01760
G1 X102.068 Y117.327 E0.01904
G1 X101.798 Y116.784 E0.01904
G1 X101.432 Y116.299 E0.01904
G1 X100.983 Y115.890 E0.01904
G1 X100.467 Y115.570 E0.01904
G1 X99.900 Y115.351 E0.01904
G1 X99.304 Y115.239 E0.01904
G1 X98.696 Y115.239 E0.01904
G1 X98.100 Y115.351 E0.01904
G1 X97.533 Y115.570 E0.01904
G1 X97.017 Y115.890 E0.01904
G1 X96.568 Y116.299 E0.01904
G1 X96.202 Y116.784 E0.01904
G1 X95.932 Y117.327 E0.01904
G1 X95.787 Y117.836 E0.01658
G1 X95.787 Y88.287 E0.92647
G1 X154.213 Y88.287 E1.83190
G1 X154.213 Y121.713 E1.04804
G1 X99.788 Y121.713 E1.70647
;WIPE_START
G1 F8640.000
G1 X99.900 Y121.681 E-0.02713
G1 X100.467 Y121.461 E-0.14021
G1 X100.983 Y121.142 E-0.14021
G1 X101.432 Y120.733 E-0.14021
G1 X101.798 Y120.248 E-0.14021
G1 X102.068 Y119.704 E-0.14021
G1 X102.106 Y119.572 E-0.03184
;WIPE_END
G1 E-0.04000 F2100.000
G1 Z0.600 F10800.000
G1 X95.410 Y122.090
G1 Z0.200
G1 E0.80000 F2100.000
;TYPE:External perimeter
G1 F1200.000
G1 X95.410 Y87.910 E1.07169
G1 X154.590 Y87.910 E1.85555
M73 P2 R36
M73 Q2 S36
G1 X154.590 Y122.090 E1.07169
G1 X95.470 Y122.090 E1.85367
G1 X95.547 Y121.714 F10800.000
;WIPE_START
G1 F8640.000
G1 X95.464 Y118.799 E-0.76000
;WIPE_END
G1 E-0.04000 F2100.000
G1 Z0.600 F10800.000
G1 X96.092 Y120.648
G1 Z0.200
G1 E0.80000 F2100.000
;TYPE:Gap fill
;WIDTH:0.11611
G1 F1200.000
G1 X95.995 Y120.298 E0.00221
;WIPE_START
G1 F8640.000
G1 X96.092 Y120.648 E-0.08392
;WIPE_END
G1 E-0.71608 F2100.000
G1 Z0.600 F10800.000
G1 X95.771 Y119.008
G1 Z0.200
G1 E0.80000 F2100.000
;WIDTH:0.34803
G1 F1200.000
G1 X95.751 Y118.548 E0.01167
;WIDTH:0.375803
G1 X95.772 Y118.024 E0.01452
;WIPE_START
G1 F8640.000
G1 X95.751 Y118.548 E-0.12116
;WIPE_END
G1 E-0.67884 F2100.000
G1 Z0.600 F10800.000
G1 X95.995 Y116.733
G1 Z0.200
G1 E0.80000 F2100.000
;WIDTH:0.116109
G1 F1200.000
G1 X96.092 Y116.383 E0.00221
;WIPE_START
G1 F8640.000
G1 X95.995 Y116.733 E-0.08392
;WIPE_END
G1 E-0.71608 F2100.000
G1 Z0.600 F10800.000
G1 X97.101 Y121.442
G1 Z0.200
G1 E0.80000 F2100.000
;WIDTH:0.104439
G1 F1200.000
G1 X97.213 Y121.506 E0.00066
;WIPE_START
G1 F8640.000
G1 X97.101 Y121.442 E-0.02978
;WIPE_END
G1 E-0.77022 F2100.000
G1 Z0.600 F10800.000
G1 X98.460 Y121.730
G1 Z0.200
G1 E0.80000 F2100.000
;WIDTH:0.34331
G1 F1200.000
G1 X98.714 Y121.753 E0.00636
G1 X99.314 Y121.751 E0.01498
;WIDTH:0.35629
G1 X99.540 Y121.730 E0.00592
;WIPE_START
G1 F8640.000
G1 X99.314 Y121.751 E-0.05242
;WIPE_END
G1 E-0.74758 F2100.000
G1 Z0.600 F10800.000
G1 X100.787 Y121.506
G1 Z0.200
G1 E0.80000 F2100.000
;WIDTH:0.104439
G1 F1200.000
G1 X100.899 Y121.442 E0.00066
;WIPE_START
G1 F8640.000
G1 X100.787 Y121.506 E-0.02978
;WIPE_END
G1 E-0.77022 F2100.000
G1 Z0.600 F10800.000
G1 X153.723 Y89.543
G1 Z0.200
G1 E0.80000 F2100.000
;TYPE:Solid infill
;WIDTH:0.421841
G1 F1200.000
G1 X153.126 Y88.947 E0.02658
G1 X152.590 Y88.947 E0.01688
G1 X153.553 Y89.910 E0.04290
G1 X153.553 Y90.446 E0.01688
G1 X152.054 Y88.947 E0.06677
G1 X151.519 Y88.947 E0.01688
G1 X153.553 Y90.981 E0.09065
G1 X153.553 Y91.517 E0.01688
G1 X150.983 Y88.947 E0.11453
G1 X150.447 Y88.947 E0.01688
G1 X153.553 Y92.053 E0.13841
G1 X153.553 Y92.589 E0.01688
G1 X149.911 Y88.947 E0.16228
G1 X149.375 Y88.947 E0.01688
G1 X153.553 Y93.125 E0.18616
G1 X153.553 Y93.661 E0.01688
G1 X148.839 Y88.947 E0.21004
G1 X148.303 Y88.947 E0.01688
G1 X153.553 Y94.197 E0.23392
G1 X153.553 Y94.733 E0.01688
G1 X147.767 Y88.947 E0.25779
G1 X147.232 Y88.947 E0.01688
G1 X153.553 Y95.268 E0.28167
G1 X153.553 Y95.804 E0.01688
G1 X146.696 Y88.947 E0.30555
G1 X146.160 Y88.947 E0.01688
G1 X153.553 Y96.340 E0.32943
G1 X153.553 Y96.876 E0.01688
G1 X145.624 Y88.947 E0.35330
G1 X145.088 Y88.947 E0.01688
G1 X153.553 Y97.412 E0.37718
G1 X153.553 Y97.948 E0.01688
G1 X144.552 Y88.947 E0.40106
G1 X144.016 Y88.947 E0.01688
G1 X153.553 Y98.484 E0.42494
G1 X153.553 Y99.020 E0.01688
G1 X143.480 Y88.947 E0.44882
G1 X142.945 Y88.947 E0.01688
G1 X153.553 Y99.555 E0.47269
G1 X153.553 Y100.091 E0.01688
G1 X142.409 Y88.947 E0.49657
G1 X141.873 Y88.947 E0.01688
G1 X153.553 Y100.627 E0.52045
G1 X153.553 Y101.163 E0.01688
G1 X141.337 Y88.947 E0.54433
G1 X140.801 Y88.947 E0.01688
G1 X153.553 Y101.699 E0.56820
G1 X153.553 Y102.235 E0.01688
G1 X140.265 Y88.947 E0.59208
G1 X139.729 Y88.947 E0.01688
G1 X153.553 Y102.771 E0.61596
M73 P3 R36
M73 Q3 S36
G1 X153.553 Y103.307 E0.01688
G1 X139.193 Y88.947 E0.63984
G1 X138.658 Y88.947 E0.01688
G1 X153.553 Y103.842 E0.66371
G1 X153.553 Y104.378 E0.01688
G1 X138.122 Y88.947 E0.68759
G1 X137.586 Y88.947 E0.01688
G1 X153.553 Y104.914 E0.71147
M73 P3 R35
G1 X153.553 Y105.450 E0.01688
G1 X137.050 Y88.947 E0.73535
G1 X136.514 Y88.947 E0.01688
G1 X153.553 Y105.986 E0.75922
G1 X153.553 Y106.522 E0.01688
G1 X135.978 Y88.947 E0.78310
G1 X135.442 Y88.947 E0.01688
G1 X153.553 Y107.058 E0.80698
M73 Q3 S35
G1 X153.553 Y107.594 E0.01688
G1 X134.906 Y88.947 E0.83086
G1 X134.371 Y88.947 E0.01688
G1 X153.553 Y108.129 E0.85474
G1 X153.553 Y108.665 E0.01688
G1 X133.835 Y88.947 E0.87861
G1 X133.299 Y88.947 E0.01688
G1 X153.553 Y109.201 E0.90249
G1 X153.553 Y109.737 E0.01688
G1 X132.763 Y88.947 E0.92637
G1 X132.227 Y88.947 E0.01688
G1 X153.553 Y110.273 E0.95025
G1 X153.553 Y110.809 E0.01688
G1 X131.691 Y88.947 E0.97412
G1 X131.155 Y88.947 E0.01688
G1 X153.553 Y111.345 E0.99800
M73 Q4 S35
G1 X153.553 Y111.881 E0.01688
G1 X130.619 Y88.947 E1.02188
M73 P4 R35
G1 X130.084 Y88.947 E0.01688
G1 X153.553 Y112.416 E1.04576
G1 X153.553 Y112.952 E0.01688
G1 X129.548 Y88.947 E1.06963
G1 X129.012 Y88.947 E0.01688
G1 X153.553 Y113.488 E1.09351
G1 X153.553 Y114.024 E0.01688
G1 X128.476 Y88.947 E1.11739
G1 X127.940 Y88.947 E0.01688
G1 X153.553 Y114.560 E1.14127
G1 X153.553 Y115.096 E0.01688
G1 X127.404 Y88.947 E1.16514
G1 X126.868 Y88.947 E0.01688
G1 X153.553 Y115.632 E1.18902
G1 X153.553 Y116.168 E0.01688
G1 X126.332 Y88.947 E1.21290
G1 X125.797 Y88.947 E0.01688
G1 X153.553 Y116.703 E1.23678
G1 X153.553 Y117.239 E0.01688
G1 X125.261 Y88.947 E1.26065
G1 X124.725 Y88.947 E0.01688
G1 X153.553 Y117.775 E1.28453
M73 P5 R35
M73 Q5 S35
G1 X153.553 Y118.311 E0.01688
G1 X124.189 Y88.947 E1.30841
G1 X123.653 Y88.947 E0.01688
G1 X153.553 Y118.847 E1.33229
G1 X153.553 Y119.383 E0.01688
G1 X123.117 Y88.947 E1.35617
G1 X122.581 Y88.947 E0.01688
G1 X153.553 Y119.919 E1.38004
G1 X153.553 Y120.455 E0.01688
G1 X122.045 Y88.947 E1.40392
G1 X121.510 Y88.947 E0.01688
G1 X153.553 Y120.990 E1.42780
G1 X153.553 Y121.053 E0.00197
G1 X153.080 Y121.053 E0.01491
G1 X120.974 Y88.947 E1.43059
G1 X120.438 Y88.947 E0.01688
G1 X152.544 Y121.053 E1.43059
G1 X152.008 Y121.053 E0.01688
G1 X119.902 Y88.947 E1.43059
M73 P5 R34
G1 X119.366 Y88.947 E0.01688
G1 X151.472 Y121.053 E1.43059
M73 P6 R34
M73 Q6 S35
G1 X150.936 Y121.053 E0.01688
G1 X118.830 Y88.947 E1.43059
G1 X118.294 Y88.947 E0.01688
G1 X150.400 Y121.053 E1.43059
M73 Q6 S34
G1 X149.865 Y121.053 E0.01688
G1 X117.758 Y88.947 E1.43059
G1 X117.223 Y88.947 E0.01688
G1 X149.329 Y121.053 E1.43059
G1 X148.793 Y121.053 E0.01688
G1 X116.687 Y88.947 E1.43059
G1 X116.151 Y88.947 E0.01688
G1 X148.257 Y121.053 E1.43059
G1 X147.721 Y121.053 E0.01688
G1 X115.615 Y88.947 E1.43059
G1 X115.079 Y88.947 E0.01688
G1 X147.185 Y121.053 E1.43059
G1 X146.649 Y121.053 E0.01688
G1 X114.543 Y88.947 E1.43059
G1 X114.007 Y88.947 E0.01688
G1 X146.113 Y121.053 E1.43059
M73 P7 R34
M73 Q7 S34
G1 X145.578 Y121.053 E0.01688
G1 X113.471 Y88.947 E1.43059
G1 X112.936 Y88.947 E0.01688
G1 X145.042 Y121.053 E1.43059
G1 X144.506 Y121.053 E0.01688
G1 X112.400 Y88.947 E1.43059
G1 X111.864 Y88.947 E0.01688
G1 X143.970 Y121.053 E1.43059
G1 X143.434 Y121.053 E0.01688
G1 X111.328 Y88.947 E1.43059
G1 X110.792 Y88.947 E0.01688
G1 X142.898 Y121.053 E1.43059
G1 X142.362 Y121.053 E0.01688
G1 X110.256 Y88.947 E1.43059
G1 X109.720 Y88.947 E0.01688
G1 X141.826 Y121.053 E1.43059
G1 X141.291 Y121.053 E0.01688
G1 X109.184 Y88.947 E1.43059
M73 P8 R34
M73 Q8 S34
G1 X108.649 Y88.947 E0.01688
G1 X140.755 Y121.053 E1.43059
G1 X140.219 Y121.053 E0.01688
G1 X108.113 Y88.947 E1.43059
G1 X107.577 Y88.947 E0.01688
G1 X139.683 Y121.053 E1.43059
G1 X139.147 Y121.053 E0.01688
G1 X107.041 Y88.947 E1.43059
G1 X106.505 Y88.947 E0.01688
G1 X138.611 Y121.053 E1.43059
G1 X138.075 Y121.053 E0.01688
G1 X105.969 Y88.947 E1.43059
M73 P8 R33
G1 X105.433 Y88.947 E0.01688
G1 X137.539 Y121.053 E1.43059
G1 X137.004 Y121.053 E0.01688
G1 X104.897 Y88.947 E1.43059
G1 X104.362 Y88.947 E0.01688
G1 X136.468 Y121.053 E1.43059
M73 Q8 S33
G1 X135.932 Y121.053 E0.01688
G1 X103.826 Y88.947 E1.43059
M73 P9 R33
M73 Q9 S33
G1 X103.290 Y88.947 E0.01688
G1 X135.396 Y121.053 E1.43059
G1 X134.860 Y121.053 E0.01688
G1 X102.754 Y88.947 E1.43059
G1 X102.218 Y88.947 E0.01688
G1 X134.324 Y121.053 E1.43059
G1 X133.788 Y121.053 E0.01688
G1 X101.682 Y88.947 E1.43059
G1 X101.146 Y88.947 E0.01688
G1 X133.252 Y121.053 E1.43059
G1 X132.717 Y121.053 E0.01688
G1 X100.610 Y88.947 E1.43059
G1 X100.075 Y88.947 E0.01688
G1 X132.181 Y121.053 E1.43059
G1 X131.645 Y121.053 E0.01688
G1 X99.539 Y88.947 E1.43059
G1 X99.003 Y88.947 E0.01688
G1 X131.109 Y121.053 E1.43059
M73 P10 R33
M73 Q10 S33
G1 X130.573 Y121.053 E0.01688
G1 X98.467 Y88.947 E1.43059
G1 X97.931 Y88.947 E0.01688
G1 X130.037 Y121.053 E1.43059
G1 X129.501 Y121.053 E0.01688
G1 X97.395 Y88.947 E1.43059
G1 X96.859 Y88.947 E0.01688
G1 X128.965 Y121.053 E1.43059
G1 X128.430 Y121.053 E0.01688
G1 X96.447 Y89.070 E1.42509
G1 X96.447 Y89.606 E0.01688
G1 X127.894 Y121.053 E1.40121
G1 X127.358 Y121.053 E0.01688
G1 X96.447 Y90.142 E1.37733
G1 X96.447 Y90.678 E0.01688
G1 X126.822 Y121.053 E1.35345
G1 X126.286 Y121.053 E0.01688
G1 X96.447 Y91.214 E1.32958
G1 X96.447 Y91.750 E0.01688
G1 X125.750 Y121.053 E1.30570
M73 P11 R33
M73 Q11 S33
G1 X125.214 Y121.053 E0.01688
G1 X96.447 Y92.286 E1.28182
G1 X96.447 Y92.822 E0.01688
G1 X124.678 Y121.053 E1.25794
G1 X124.143 Y121.053 E0.01688
G1 X96.447 Y93.357 E1.23407
G1 X96.447 Y93.893 E0.01688
G1 X123.607 Y121.053 E1.21019
M73 P11 R32
