; generated by PrusaSlicer 2.3.3+win64 on 2021-12-03 at 19:31:30 UTC

; 

; external perimeters extrusion width = 0.45mm
; perimeters extrusion width = 0.45mm
; infill extrusion width = 0.45mm
; solid infill extrusion width = 0.45mm
; top infill extrusion width = 0.40mm
; first layer extrusion width = 0.42mm

M73 P0 R57
M73 Q0 S57
M201 X1000 Y1000 Z200 E5000 ; sets maximum accelerations, mm/sec^2
M203 X200 Y200 Z12 E120 ; sets maximum feedrates, mm/sec
M204 P1250 R1250 T1250 ; sets acceleration (P, T) and retract acceleration (R), mm/sec^2
M205 X8.00 Y8.00 Z0.40 E4.50 ; sets the jerk limits, mm/sec
M205 S0 T0 ; sets the minimum extruding and travel feed rate, mm/sec
M107
;TYPE:Custom
M862.3 P "MK3S" ; printer model check
M862.1 P0.4 ; nozzle diameter check
M115 U3.10.0 ; tell printer latest fw version
G90 ; use absolute coordinates
M83 ; extruder relative mode
M104 S215 ; set extruder temp
M140 S60 ; set bed temp
M190 S60 ; wait for bed temp
M109 S215 ; wait for extruder temp
G28 W ; home all without mesh bed level
G80 ; mesh bed leveling
G1 Y-3.0 F1000.0 ; go outside print area
G92 E0.0
G1 X60.0 E9.0 F1000.0 ; intro line
G1 X100.0 E12.5 F1000.0 ; intro line
G92 E0.0
M221 S95

; Don't change E values below. Excessive value can damage the printer.
M907 E430 ; set extruder motor current
G21 ; set units to millimeters
G90 ; use absolute coordinates
M83 ; use relative distances for extrusion
M900 K0.05 ; Filament gcode LA 1.5
M900 K30 ; Filament gcode LA 1.0
;LAYER_CHANGE
;Z:0.2
;HEIGHT:0.2
;BEFORE_LAYER_CHANGE
G92 E0.0
;0.2


G1 E-0.80000 F2100.000
G1 Z0.400 F10800.000
;AFTER_LAYER_CHANGE
;0.2
G1 X92.273 Y77.323
G1 Z0.200
G1 E0.80000 F2100.000
M204 S1000
;TYPE:Skirt
;WIDTH:0.42
G1 F1200.000
G1 X92.919 Y77.230 E0.02048
G1 X152.935 Y77.230 E1.88177
G1 X153.827 Y77.405 E0.02849
G1 X154.588 Y77.902 E0.02849
G1 X155.106 Y78.648 E0.02849
G1 X155.308 Y79.534 E0.02849
G1 X155.308 Y114.679 E1.10197
G1 X155.218 Y115.258 E0.01835
G1 X154.992 Y115.793 E0.01823
G1 X154.640 Y116.260 E0.01835
G1 X154.187 Y116.625 E0.01823
G1 X153.591 Y116.891 E0.02048
G1 X152.944 Y116.984 E0.02048
G1 X92.905 Y116.984 E1.88249
G1 X92.318 Y116.903 E0.01858
G1 X91.765 Y116.678 E0.01870
G1 X91.289 Y116.325 E0.01858
G1 X90.913 Y115.863 E0.01870
G1 X90.650 Y115.273 E0.02024
G1 X90.555 Y114.631 E0.02036
G1 X90.555 Y79.561 E1.09958
G1 X90.639 Y78.978 E0.01846
G1 X90.864 Y78.434 E0.01846
G1 X91.218 Y77.959 E0.01858
G1 X91.676 Y77.589 E0.01846
G1 X92.218 Y77.347 E0.01860
; printing object Rilievo  Montedelgallo v5.stl id:0 copy 0
;WIPE_START
G1 F8640.000
G1 X92.919 Y77.230 E-0.16417
G1 X95.500 Y77.230 E-0.59583
;WIPE_END
G1 E-0.04000 F2100.000
G1 Z0.600 F10800.000
G1 X96.613 Y107.729
G1 Z0.200
G1 E0.80000 F2100.000
;TYPE:External perimeter
G1 F1200.000
G1 X97.004 Y107.715 E0.01226
G1 X97.459 Y107.760 E0.01435
G1 X97.872 Y107.868 E0.01336
G1 X98.263 Y108.034 E0.01333
G1 X98.596 Y108.237 E0.01226
G1 X98.951 Y108.526 E0.01435
G1 X99.236 Y108.844 E0.01336
G1 X99.470 Y109.198 E0.01333
G1 X99.651 Y109.583 E0.01333
G1 X99.763 Y109.957 E0.01226
G1 X99.835 Y110.409 E0.01435
G1 X99.835 Y110.835 E0.01336
G1 X99.773 Y111.256 E0.01333
G1 X99.651 Y111.663 E0.01333
G1 X99.470 Y112.047 E0.01333
G1 X99.236 Y112.402 E0.01333
G1 X98.975 Y112.693 E0.01226
G1 X98.626 Y112.990 E0.01435
G1 X98.263 Y113.212 E0.01336
G1 X97.872 Y113.378 E0.01333
G1 X97.460 Y113.485 E0.01333
G1 X97.038 Y113.532 E0.01333
G1 X96.613 Y113.516 E0.01333
G1 X96.195 Y113.439 E0.01333
G1 X95.793 Y113.302 E0.01333
G1 X95.415 Y113.108 E0.01333
G1 X95.069 Y112.860 E0.01333
G1 X94.764 Y112.565 E0.01333
G1 X94.525 Y112.256 E0.01226
G1 X94.296 Y111.859 E0.01435
G1 X94.144 Y111.461 E0.01336
G1 X94.052 Y111.047 E0.01333
G1 X94.021 Y110.623 E0.01333
G1 X94.052 Y110.199 E0.01333
G1 X94.144 Y109.784 E0.01333
G1 X94.296 Y109.387 E0.01333
G1 X94.504 Y109.016 E0.01333
G1 X94.764 Y108.680 E0.01333
G1 X95.069 Y108.385 E0.01333
G1 X95.415 Y108.138 E0.01333
G1 X95.793 Y107.944 E0.01333
G1 X96.195 Y107.806 E0.01333
G1 X96.554 Y107.740 E0.01144
G1 X96.770 Y107.371 F10800.000
;WIPE_START
G1 F8640.000
G1 X97.004 Y107.715 E-0.10399
G1 X97.459 Y107.760 E-0.10565
G1 X97.872 Y107.868 E-0.09841
G1 X98.263 Y108.034 E-0.09813
G1 X98.596 Y108.237 E-0.09027
G1 X98.951 Y108.526 E-0.10565
G1 X99.236 Y108.844 E-0.09841
G1 X99.378 Y109.058 E-0.05950
;WIPE_END
G1 E-0.04000 F2100.000
G1 Z0.600 F10800.000
G1 X94.096 Y112.935
G1 Z0.200
G1 E0.80000 F2100.000
;TYPE:Perimeter
G1 F1200.000
G1 X94.200 Y113.070 E0.00536
G1 X94.588 Y113.443 E0.01685
G1 X94.096 Y113.443 E0.01542
G1 X94.096 Y112.995 E0.01405
G1 X93.719 Y113.820 F10800.000
G1 F1200.000
G1 X93.719 Y111.287 E0.07943
G1 X93.782 Y111.570 E0.00911
G1 X93.955 Y112.022 E0.01516
G1 X94.211 Y112.466 E0.01608
G1 X94.482 Y112.818 E0.01392
G1 X94.828 Y113.151 E0.01506
G1 X95.218 Y113.430 E0.01506
G1 X95.645 Y113.650 E0.01506
G1 X96.181 Y113.820 E0.01761
G1 X93.779 Y113.820 E0.07531
;WIPE_START
G1 F8640.000
G1 X93.719 Y111.287 E-0.58510
G1 X93.782 Y111.570 E-0.06711
G1 X93.949 Y112.006 E-0.10779
;WIPE_END
G1 E-0.04000 F2100.000
G1 Z0.600 F10800.000
G1 X132.697 Y92.587
G1 Z0.200
G1 E0.80000 F2100.000
G1 F1200.000
G1 X130.998 Y92.096 E0.05545
G1 X130.605 Y92.027 E0.01251
G1 X130.243 Y91.922 E0.01183
G1 X129.789 Y91.603 E0.01741
G1 X129.533 Y91.212 E0.01465
G1 X129.413 Y90.799 E0.01349
G1 X129.425 Y90.347 E0.01419
G1 X129.549 Y89.962 E0.01266
G1 X129.868 Y89.539 E0.01662
G1 X130.215 Y89.308 E0.01308
G1 X130.577 Y89.193 E0.01191
G1 X130.939 Y89.150 E0.01143
G1 X131.344 Y89.196 E0.01279
G1 X131.637 Y89.287 E0.00961
G1 X132.036 Y89.509 E0.01433
G1 X132.363 Y89.849 E0.01477
G1 X132.540 Y90.154 E0.01107
G1 X132.661 Y90.602 E0.01455
G1 X132.696 Y92.527 E0.06037
G1 X132.311 Y92.083 F10800.000
G1 F1200.000
G1 X131.083 Y91.728 E0.04007
G1 X130.691 Y91.660 E0.01250
G1 X130.409 Y91.578 E0.00921
G1 X130.065 Y91.336 E0.01318
G1 X129.879 Y91.053 E0.01062
G1 X129.791 Y90.750 E0.00987
G1 X129.801 Y90.411 E0.01065
G1 X129.888 Y90.139 E0.00896
G1 X130.131 Y89.818 E0.01262
G1 X130.380 Y89.651 E0.00940
G1 X130.657 Y89.563 E0.00910
G1 X130.940 Y89.530 E0.00894
G1 X131.267 Y89.567 E0.01032
G1 X131.488 Y89.635 E0.00726
G1 X131.804 Y89.811 E0.01133
G1 X132.060 Y90.078 E0.01158
G1 X132.189 Y90.300 E0.00808
G1 X132.285 Y90.655 E0.01153
G1 X132.310 Y92.023 E0.04288
G1 X131.925 Y91.579 F10800.000
;TYPE:External perimeter
G1 F1200.000
G1 X131.168 Y91.360 E0.02469
G1 X130.776 Y91.292 E0.01249
G1 X130.574 Y91.233 E0.00658
G1 X130.341 Y91.069 E0.00895
G1 X130.225 Y90.893 E0.00659
G1 X130.170 Y90.702 E0.00625
G1 X130.176 Y90.475 E0.00712
G1 X130.227 Y90.315 E0.00527
G1 X130.393 Y90.096 E0.00862
G1 X130.545 Y89.994 E0.00573
G1 X130.736 Y89.933 E0.00628
G1 X130.941 Y89.910 E0.00645
G1 X131.189 Y89.937 E0.00784
G1 X131.339 Y89.984 E0.00491
G1 X131.571 Y90.113 E0.00833
G1 X131.756 Y90.306 E0.00839
G1 X131.838 Y90.447 E0.00510
G1 X131.909 Y90.709 E0.00851
G1 X131.923 Y91.519 E0.02540
G1 X131.860 Y91.973 F10800.000
;WIPE_START
G1 F8640.000
G1 X131.168 Y91.360 E-0.17819
G1 X130.776 Y91.292 E-0.09200
G1 X130.574 Y91.233 E-0.04849
G1 X130.341 Y91.069 E-0.06590
G1 X130.225 Y90.893 E-0.04852
G1 X130.170 Y90.702 E-0.04603
G1 X130.176 Y90.475 E-0.05240
G1 X130.227 Y90.315 E-0.03880
G1 X130.393 Y90.096 E-0.06347
G1 X130.545 Y89.994 E-0.04221
G1 X130.736 Y89.933 E-0.04628
G1 X130.898 Y89.914 E-0.03771
;WIPE_END
G1 E-0.04000 F2100.000
G1 Z0.600 F10800.000
G1 X135.996 Y89.925
G1 Z0.200
G1 E0.80000 F2100.000
;TYPE:Perimeter
G1 F1200.000
G1 X136.211 Y90.435 E0.01734
G1 X136.271 Y90.796 E0.01146
G1 X136.271 Y91.285 E0.01534
G1 X136.211 Y91.617 E0.01058
G1 X136.081 Y91.968 E0.01173
G1 X135.857 Y92.304 E0.01267
G1 X135.592 Y92.553 E0.01138
G1 X135.281 Y92.742 E0.01141
G1 X134.930 Y92.856 E0.01158
G1 X134.584 Y92.890 E0.01090
G1 X134.241 Y92.858 E0.01080
G1 X133.892 Y92.747 E0.01149
G1 X133.575 Y92.558 E0.01156
G1 X133.309 Y92.308 E0.01145
G1 X133.075 Y91.952 E0.01336
G1 X132.949 Y91.603 E0.01162
G1 X132.892 Y91.272 E0.01055
G1 X132.892 Y90.785 E0.01529
G1 X132.949 Y90.455 E0.01050
G1 X133.073 Y90.106 E0.01159
G1 X133.307 Y89.750 E0.01337
G1 X133.571 Y89.500 E0.01140
G1 X133.886 Y89.311 E0.01153
G1 X134.238 Y89.198 E0.01158
G1 X134.583 Y89.165 E0.01086
G1 X134.928 Y89.198 E0.01086
G1 X135.279 Y89.312 E0.01158
G1 X135.623 Y89.520 E0.01261
G1 X135.955 Y89.881 E0.01538
G1 X135.674 Y90.132 F10800.000
G1 F1200.000
G1 X135.846 Y90.541 E0.01390
G1 X135.894 Y90.827 E0.00909
G1 X135.894 Y91.251 E0.01329
G1 X135.845 Y91.517 E0.00849
G1 X135.742 Y91.796 E0.00930
G1 X135.567 Y92.059 E0.00993
G1 X135.363 Y92.251 E0.00878
G1 X135.123 Y92.397 E0.00880
G1 X134.852 Y92.485 E0.00893
G1 X134.584 Y92.511 E0.00846
G1 X134.317 Y92.486 E0.00840
G1 X134.048 Y92.401 E0.00886
G1 X133.804 Y92.255 E0.00891
G1 X133.599 Y92.064 E0.00877
G1 X133.414 Y91.783 E0.01055
G1 X133.315 Y91.507 E0.00918
G1 X133.269 Y91.240 E0.00850
G1 X133.269 Y90.817 E0.01326
G1 X133.315 Y90.551 E0.00846
G1 X133.413 Y90.275 E0.00917
G1 X133.598 Y89.994 E0.01057
G1 X133.801 Y89.803 E0.00873
G1 X134.043 Y89.656 E0.00889
G1 X134.315 Y89.569 E0.00893
G1 X134.583 Y89.543 E0.00845
G1 X134.850 Y89.569 E0.00843
G1 X135.121 Y89.657 E0.00892
G1 X135.382 Y89.815 E0.00955
G1 X135.633 Y90.088 E0.01164
;WIPE_START
G1 F8640.000
G1 X135.846 Y90.541 E-0.11553
G1 X135.894 Y90.827 E-0.06692
G1 X135.894 Y91.251 E-0.09787
G1 X135.845 Y91.517 E-0.06254
G1 X135.742 Y91.796 E-0.06850
G1 X135.567 Y92.059 E-0.07315
G1 X135.363 Y92.251 E-0.06468
G1 X135.123 Y92.397 E-0.06480
G1 X134.852 Y92.485 E-0.06573
G1 X134.584 Y92.511 E-0.06233
G1 X134.506 Y92.504 E-0.01796
;WIPE_END
G1 E-0.04000 F2100.000
G1 Z0.600 F10800.000
G1 X134.032 Y91.952
G1 Z0.200
G1 E0.80000 F2100.000
;TYPE:External perimeter
G1 F1200.000
G1 X133.890 Y91.819 E0.00610
G1 X133.754 Y91.613 E0.00774
G1 X133.681 Y91.410 E0.00675
G1 X133.646 Y91.207 E0.00646
G1 X133.646 Y90.849 E0.01123
G1 X133.681 Y90.647 E0.00643
G1 X133.753 Y90.444 E0.00674
G1 X133.889 Y90.237 E0.00776
G1 X134.030 Y90.105 E0.00607
G1 X134.200 Y90.002 E0.00625
G1 X134.391 Y89.941 E0.00628
G1 X134.583 Y89.922 E0.00603
G1 X134.773 Y89.941 E0.00601
G1 X134.963 Y90.002 E0.00626
G1 X135.141 Y90.110 E0.00650
G1 X135.352 Y90.339 E0.00979
G1 X135.481 Y90.647 E0.01047
G1 X135.517 Y90.858 E0.00671
G1 X135.516 Y91.217 E0.01124
G1 X135.480 Y91.418 E0.00640
G1 X135.404 Y91.623 E0.00687
G1 X135.277 Y91.814 E0.00719
G1 X135.133 Y91.949 E0.00619
G1 X134.964 Y92.052 E0.00619
G1 X134.774 Y92.114 E0.00627
G1 X134.583 Y92.133 E0.00603
G1 X134.393 Y92.114 E0.00599
G1 X134.203 Y92.054 E0.00623
G1 X134.083 Y91.983 E0.00439
G1 X133.853 Y92.028 F10800.000
;WIPE_START
G1 F8640.000
G1 X133.890 Y91.819 E-0.05850
G1 X133.754 Y91.613 E-0.05696
G1 X133.681 Y91.410 E-0.04969
G1 X133.646 Y91.207 E-0.04759
G1 X133.646 Y90.849 E-0.08272
G1 X133.681 Y90.647 E-0.04737
G1 X133.753 Y90.444 E-0.04963
G1 X133.889 Y90.237 E-0.05715
G1 X134.030 Y90.105 E-0.04469
G1 X134.200 Y90.002 E-0.04600
G1 X134.391 Y89.941 E-0.04625
G1 X134.583 Y89.922 E-0.04440
G1 X134.773 Y89.941 E-0.04425
G1 X134.963 Y90.002 E-0.04612
G1 X135.107 Y90.089 E-0.03868
;WIPE_END
G1 E-0.04000 F2100.000
G1 Z0.600 F10800.000
G1 X134.981 Y86.136
G1 Z0.200
G1 E0.80000 F2100.000
;TYPE:Perimeter
G1 F1200.000
G1 X138.720 Y86.136 E0.11723
G1 X138.414 Y87.803 E0.05312
G1 X138.297 Y88.101 E0.01004
G1 X138.116 Y88.381 E0.01048
G1 X137.856 Y88.639 E0.01147
G1 X137.533 Y88.839 E0.01191
G1 X137.175 Y88.956 E0.01183
G1 X136.834 Y88.989 E0.01073
G1 X136.522 Y88.963 E0.00982
G1 X136.205 Y88.875 E0.01032
G1 X135.905 Y88.719 E0.01059
G1 X135.647 Y88.510 E0.01042
G1 X135.430 Y88.247 E0.01070
G1 X135.273 Y87.948 E0.01056
G1 X135.184 Y87.652 E0.00971
G1 X134.989 Y86.196 E0.04606
G1 X135.412 Y86.513 F10800.000
G1 F1200.000
G1 X138.267 Y86.513 E0.08953
G1 X138.050 Y87.699 E0.03779
G1 X137.960 Y87.928 E0.00772
G1 X137.821 Y88.142 E0.00801
G1 X137.621 Y88.341 E0.00885
G1 X137.373 Y88.495 E0.00915
G1 X137.097 Y88.585 E0.00910
G1 X136.832 Y88.611 E0.00836
G1 X136.589 Y88.590 E0.00764
G1 X136.344 Y88.522 E0.00798
G1 X136.113 Y88.402 E0.00815
G1 X135.914 Y88.241 E0.00804
G1 X135.746 Y88.037 E0.00829
G1 X135.624 Y87.805 E0.00820
G1 X135.554 Y87.572 E0.00763
G1 X135.420 Y86.573 E0.03160
G1 X135.843 Y86.890 F10800.000
;TYPE:External perimeter
G1 F1200.000
G1 X137.815 Y86.890 E0.06183
G1 X137.686 Y87.595 E0.02245
G1 X137.623 Y87.755 E0.00539
G1 X137.527 Y87.903 E0.00554
G1 X137.386 Y88.043 E0.00623
G1 X137.213 Y88.151 E0.00639
G1 X137.019 Y88.214 E0.00637
G1 X136.829 Y88.232 E0.00599
G1 X136.656 Y88.218 E0.00546
G1 X136.483 Y88.169 E0.00563
G1 X136.321 Y88.085 E0.00572
G1 X136.181 Y87.972 E0.00566
G1 X136.061 Y87.827 E0.00589
G1 X135.975 Y87.662 E0.00584
G1 X135.924 Y87.492 E0.00556
G1 X135.851 Y86.950 E0.01715
G1 X135.820 Y86.491 F10800.000
;WIPE_START
G1 F8640.000
G1 X137.815 Y86.890 E-0.45368
G1 X137.686 Y87.595 E-0.16536
G1 X137.623 Y87.755 E-0.03969
G1 X137.527 Y87.903 E-0.04079
G1 X137.386 Y88.043 E-0.04590
G1 X137.332 Y88.076 E-0.01458
;WIPE_END
G1 E-0.04000 F2100.000
G1 Z0.600 F10800.000
G1 X134.736 Y82.122
G1 Z0.200
G1 E0.80000 F2100.000
;TYPE:Perimeter
G1 F1200.000
G1 X134.951 Y82.632 E0.01734
G1 X135.012 Y82.992 E0.01146
G1 X135.011 Y83.481 E0.01534
G1 X134.951 Y83.813 E0.01058
G1 X134.821 Y84.164 E0.01173
G1 X134.597 Y84.501 E0.01267
G1 X134.333 Y84.749 E0.01138
G1 X134.022 Y84.938 E0.01141
G1 X133.671 Y85.053 E0.01158
G1 X133.325 Y85.087 E0.01090
G1 X132.982 Y85.054 E0.01080
G1 X132.633 Y84.943 E0.01148
G1 X132.316 Y84.755 E0.01156
G1 X132.049 Y84.505 E0.01145
G1 X131.815 Y84.149 E0.01336
G1 X131.690 Y83.800 E0.01162
G1 X131.633 Y83.469 E0.01055
G1 X131.633 Y82.981 E0.01529
G1 X131.690 Y82.651 E0.01050
G1 X131.814 Y82.303 E0.01159
G1 X132.047 Y81.946 E0.01337
G1 X132.312 Y81.697 E0.01140
G1 X132.627 Y81.507 E0.01153
G1 X132.979 Y81.394 E0.01158
G1 X133.323 Y81.361 E0.01086
G1 X133.668 Y81.394 E0.01086
G1 X134.020 Y81.508 E0.01159
G1 X134.364 Y81.717 E0.01261
G1 X134.696 Y82.078 E0.01538
G1 X134.414 Y82.329 F10800.000
G1 F1200.000
G1 X134.587 Y82.738 E0.01390
G1 X134.635 Y83.023 E0.00909
G1 X134.634 Y83.447 E0.01329
G1 X134.586 Y83.714 E0.00849
G1 X134.483 Y83.992 E0.00930
G1 X134.307 Y84.256 E0.00993
G1 X134.103 Y84.447 E0.00878
G1 X133.863 Y84.593 E0.00880
G1 X133.593 Y84.681 E0.00893
G1 X133.324 Y84.708 E0.00846
G1 X133.058 Y84.682 E0.00840
G1 X132.788 Y84.597 E0.00886
G1 X132.544 Y84.451 E0.00891
G1 X132.340 Y84.260 E0.00877
G1 X132.155 Y83.979 E0.01055
G1 X132.056 Y83.703 E0.00918
G1 X132.010 Y83.436 E0.00850
G1 X132.010 Y83.013 E0.01326
G1 X132.056 Y82.747 E0.00846
G1 X132.154 Y82.472 E0.00917
G1 X132.338 Y82.190 E0.01057
G1 X132.541 Y81.999 E0.00873
G1 X132.784 Y81.853 E0.00889
G1 X133.055 Y81.766 E0.00893
G1 X133.323 Y81.740 E0.00845
G1 X133.591 Y81.766 E0.00843
G1 X133.862 Y81.853 E0.00892
G1 X134.122 Y82.011 E0.00955
G1 X134.374 Y82.285 E0.01164
;WIPE_START
G1 F8640.000
G1 X134.587 Y82.738 E-0.11552
G1 X134.635 Y83.023 E-0.06692
G1 X134.634 Y83.447 E-0.09786
G1 X134.586 Y83.714 E-0.06254
G1 X134.483 Y83.992 E-0.06851
G1 X134.307 Y84.256 E-0.07314
G1 X134.103 Y84.447 E-0.06468
G1 X133.863 Y84.593 E-0.06479
G1 X133.593 Y84.681 E-0.06573
G1 X133.324 Y84.708 E-0.06234
G1 X133.247 Y84.700 E-0.01796
;WIPE_END
G1 E-0.04000 F2100.000
G1 Z0.600 F10800.000
G1 X132.770 Y82.301
G1 Z0.200
G1 E0.80000 F2100.000
;TYPE:External perimeter
G1 F1200.000
G1 X132.941 Y82.198 E0.00625
G1 X133.132 Y82.137 E0.00628
G1 X133.323 Y82.119 E0.00603
G1 X133.514 Y82.137 E0.00601
G1 X133.704 Y82.199 E0.00626
G1 X133.881 Y82.306 E0.00650
G1 X134.092 Y82.536 E0.00979
G1 X134.222 Y82.843 E0.01047
G1 X134.258 Y83.055 E0.00671
G1 X134.257 Y83.413 E0.01124
G1 X134.221 Y83.614 E0.00640
G1 X134.145 Y83.820 E0.00687
G1 X134.018 Y84.010 E0.00719
G1 X133.874 Y84.146 E0.00619
G1 X133.705 Y84.248 E0.00619
G1 X133.515 Y84.310 E0.00627
G1 X133.324 Y84.329 E0.00603
G1 X133.133 Y84.311 E0.00599
G1 X132.944 Y84.251 E0.00623
G1 X132.772 Y84.148 E0.00627
G1 X132.630 Y84.016 E0.00610
G1 X132.495 Y83.809 E0.00773
G1 X132.422 Y83.607 E0.00675
G1 X132.387 Y83.404 E0.00646
G1 X132.387 Y83.046 E0.01123
G1 X132.422 Y82.843 E0.00643
