; generated by PrusaSlicer 2.3.3+win64 on 2021-12-11 at 13:57:25 UTC

; 

; external perimeters extrusion width = 0.45mm
; perimeters extrusion width = 0.45mm
; infill extrusion width = 0.45mm
; solid infill extrusion width = 0.45mm
; top infill extrusion width = 0.40mm
; first layer extrusion width = 0.42mm

M73 P0 R35
M73 Q0 S35
M201 X1000 Y1000 Z200 E5000 ; sets maximum accelerations, mm/sec^2
M203 X200 Y200 Z12 E120 ; sets maximum feedrates, mm/sec
M204 P1250 R1250 T1250 ; sets acceleration (P, T) and retract acceleration (R), mm/sec^2
M205 X8.00 Y8.00 Z0.40 E4.50 ; sets the jerk limits, mm/sec
M205 S0 T0 ; sets the minimum extruding and travel feed rate, mm/sec
M107
;TYPE:Custom
M862.3 P "MK3S" ; printer model check
M862.1 P0.4 ; nozzle diameter check
M115 U3.10.0 ; tell printer latest fw version
G90 ; use absolute coordinates
M83 ; extruder relative mode
M104 S215 ; set extruder temp
M140 S60 ; set bed temp
M190 S60 ; wait for bed temp
M109 S215 ; wait for extruder temp
G28 W ; home all without mesh bed level
G80 ; mesh bed leveling
G1 Y-3.0 F1000.0 ; go outside print area
G92 E0.0
G1 X60.0 E9.0 F1000.0 ; intro line
G1 X100.0 E12.5 F1000.0 ; intro line
G92 E0.0
M221 S95

; Don't change E values below. Excessive value can damage the printer.
M907 E430 ; set extruder motor current
G21 ; set units to millimeters
G90 ; use absolute coordinates
M83 ; use relative distances for extrusion
M900 K0.05 ; Filament gcode LA 1.5
M900 K30 ; Filament gcode LA 1.0
;LAYER_CHANGE
;Z:0.2
;HEIGHT:0.2
;BEFORE_LAYER_CHANGE
G92 E0.0
;0.2


G1 E-0.80000 F2100.000
G1 Z0.400 F10800.000
;AFTER_LAYER_CHANGE
;0.2
G1 X95.679 Y85.337
G1 Z0.200
G1 E0.80000 F2100.000
M204 S1000
;TYPE:Skirt
;WIDTH:0.42
G1 F1200.000
G1 X96.969 Y85.133 E0.04095
G1 X153.004 Y85.133 E1.75692
G1 X153.736 Y85.195 E0.02303
G1 X154.518 Y85.408 E0.02540
G1 X155.441 Y85.881 E0.03253
G1 X156.061 Y86.385 E0.02505
G1 X156.551 Y86.958 E0.02363
G1 X156.950 Y87.641 E0.02481
G1 X157.203 Y88.326 E0.02290
G1 X157.363 Y89.351 E0.03253
G1 X157.364 Y120.629 E0.98070
G1 X157.191 Y121.722 E0.03467
G1 X156.856 Y122.550 E0.02802
G1 X156.175 Y123.497 E0.03657
G1 X155.444 Y124.117 E0.03004
G1 X154.321 Y124.663 E0.03917
G1 X153.031 Y124.867 E0.04095
G1 X96.954 Y124.867 E1.75823
G1 X95.804 Y124.698 E0.03645
G1 X94.970 Y124.366 E0.02814
G1 X94.006 Y123.677 E0.03716
G1 X93.383 Y122.944 E0.03015
G1 X92.840 Y121.828 E0.03893
G1 X92.633 Y120.553 E0.04048
G1 X92.634 Y89.424 E0.97605
G1 X92.805 Y88.293 E0.03586
G1 X93.137 Y87.463 E0.02802
G1 X93.825 Y86.503 E0.03704
G1 X94.556 Y85.883 E0.03004
G1 X95.625 Y85.364 E0.03729
; printing object Schizzo Montedelgallo corso v5.stl id:0 copy 0
;WIPE_START
G1 F8640.000
G1 X96.969 Y85.133 E-0.31487
G1 X98.897 Y85.133 E-0.44513
;WIPE_END
G1 E-0.04000 F2100.000
G1 Z0.600 F10800.000
G1 X98.682 Y115.622
G1 Z0.200
G1 E0.80000 F2100.000
;TYPE:External perimeter
G1 F1200.000
G1 X99.079 Y115.608 E0.01245
G1 X99.528 Y115.653 E0.01416
G1 X99.940 Y115.761 E0.01336
G1 X100.331 Y115.927 E0.01333
G1 X100.694 Y116.148 E0.01333
G1 X101.021 Y116.420 E0.01333
G1 X101.304 Y116.737 E0.01333
G1 X101.539 Y117.091 E0.01333
G1 X101.719 Y117.476 E0.01333
G1 X101.841 Y117.883 E0.01333
G1 X101.903 Y118.303 E0.01333
G1 X101.903 Y118.728 E0.01333
G1 X101.841 Y119.149 E0.01333
G1 X101.719 Y119.556 E0.01333
G1 X101.539 Y119.940 E0.01333
G1 X101.304 Y120.295 E0.01333
G1 X101.021 Y120.611 E0.01333
G1 X100.694 Y120.883 E0.01333
G1 X100.331 Y121.105 E0.01333
G1 X99.966 Y121.260 E0.01245
G1 X99.530 Y121.378 E0.01416
G1 X99.106 Y121.425 E0.01336
G1 X98.682 Y121.409 E0.01333
G1 X98.264 Y121.332 E0.01333
G1 X97.861 Y121.195 E0.01333
G1 X97.483 Y121.001 E0.01333
G1 X97.138 Y120.753 E0.01333
G1 X96.832 Y120.458 E0.01333
G1 X96.572 Y120.122 E0.01333
G1 X96.364 Y119.751 E0.01333
G1 X96.212 Y119.354 E0.01333
G1 X96.120 Y118.940 E0.01333
G1 X96.089 Y118.516 E0.01333
G1 X96.120 Y118.092 E0.01333
G1 X96.212 Y117.677 E0.01333
G1 X96.364 Y117.280 E0.01333
G1 X96.572 Y116.910 E0.01333
G1 X96.832 Y116.573 E0.01333
G1 X97.138 Y116.278 E0.01333
G1 X97.483 Y116.031 E0.01333
G1 X97.861 Y115.837 E0.01333
G1 X98.264 Y115.699 E0.01333
G1 X98.623 Y115.633 E0.01144
G1 X98.841 Y115.258 F10800.000
;WIPE_START
G1 F8640.000
G1 X99.079 Y115.608 E-0.10544
G1 X99.528 Y115.653 E-0.10426
G1 X99.940 Y115.761 E-0.09836
G1 X100.331 Y115.927 E-0.09813
G1 X100.694 Y116.148 E-0.09813
G1 X101.021 Y116.420 E-0.09813
G1 X101.304 Y116.737 E-0.09813
G1 X101.446 Y116.951 E-0.05941
;WIPE_END
G1 E-0.04000 F2100.000
G1 Z0.600 F10800.000
G1 X95.994 Y119.839
G1 Z0.200
G1 E0.80000 F2100.000
;TYPE:Perimeter
G1 F1200.000
G1 X96.257 Y120.331 E0.01747
G1 X96.550 Y120.711 E0.01506
G1 X96.896 Y121.044 E0.01506
G1 X97.287 Y121.323 E0.01506
G1 X97.642 Y121.506 E0.01252
G1 X96.843 Y121.491 E0.02504
G1 X96.544 Y121.394 E0.00984
G1 X96.290 Y121.210 E0.00984
G1 X96.106 Y120.956 E0.00984
G1 X96.009 Y120.657 E0.00984
G1 X95.994 Y119.899 E0.02376
;WIPE_START
G1 F8640.000
G1 X96.257 Y120.331 E-0.11662
G1 X96.550 Y120.711 E-0.11088
G1 X96.896 Y121.044 E-0.11088
G1 X97.287 Y121.323 E-0.11088
G1 X97.642 Y121.506 E-0.09219
G1 X96.843 Y121.491 E-0.18443
G1 X96.702 Y121.445 E-0.03412
;WIPE_END
G1 E-0.04000 F2100.000
G1 Z0.600 F10800.000
G1 X95.994 Y117.192
G1 Z0.200
G1 E0.80000 F2100.000
G1 F1200.000
G1 X95.994 Y89.531 E0.86730
M73 P1 R35
M73 Q1 S35
G1 X96.009 Y89.343 E0.00591
G1 X96.106 Y89.044 E0.00984
G1 X96.290 Y88.790 E0.00984
G1 X96.544 Y88.606 E0.00984
G1 X96.843 Y88.509 E0.00984
G1 X97.031 Y88.494 E0.00591
G1 X153.082 Y88.503 E1.75743
G1 X153.310 Y88.546 E0.00729
G1 X153.590 Y88.688 E0.00984
G1 X153.710 Y88.790 E0.00494
G1 X153.894 Y89.044 E0.00984
G1 X153.991 Y89.343 E0.00984
G1 X154.006 Y89.531 E0.00591
G1 X154.006 Y120.469 E0.97004
G1 X153.991 Y120.657 E0.00591
G1 X153.894 Y120.956 E0.00984
G1 X153.710 Y121.210 E0.00984
G1 X153.456 Y121.394 E0.00984
G1 X153.157 Y121.491 E0.00984
G1 X152.969 Y121.506 E0.00591
G1 X100.351 Y121.506 E1.64980
G1 X100.504 Y121.441 E0.00521
G1 X100.914 Y121.191 E0.01506
G1 X101.283 Y120.884 E0.01506
G1 X101.603 Y120.526 E0.01506
G1 X101.868 Y120.126 E0.01506
G1 X102.072 Y119.691 E0.01506
G1 X102.210 Y119.231 E0.01506
G1 X102.280 Y118.756 E0.01506
G1 X102.280 Y118.276 E0.01506
G1 X102.210 Y117.801 E0.01506
G1 X102.072 Y117.341 E0.01506
G1 X101.868 Y116.906 E0.01506
G1 X101.603 Y116.505 E0.01506
G1 X101.283 Y116.148 E0.01506
G1 X100.914 Y115.841 E0.01506
G1 X100.504 Y115.591 E0.01506
G1 X100.062 Y115.403 E0.01506
G1 X99.595 Y115.281 E0.01514
G1 X99.091 Y115.230 E0.01589
G1 X98.640 Y115.246 E0.01413
G1 X98.168 Y115.334 E0.01506
G1 X97.714 Y115.489 E0.01506
G1 X97.287 Y115.708 E0.01506
G1 X96.896 Y115.988 E0.01506
G1 X96.550 Y116.321 E0.01506
G1 X96.257 Y116.701 E0.01506
G1 X96.015 Y117.136 E0.01561
;WIPE_START
G1 F8640.000
G1 X96.013 Y113.845 E-0.76000
;WIPE_END
G1 E-0.04000 F2100.000
G1 Z0.600 F10800.000
G1 X95.635 Y120.716
G1 Z0.200
G1 E0.80000 F2100.000
;TYPE:External perimeter
G1 F1200.000
G1 X95.617 Y120.484 E0.00731
G1 X95.617 Y89.516 E0.97097
G1 X95.635 Y89.284 E0.00730
G1 X95.686 Y89.073 E0.00680
G1 X95.769 Y88.873 E0.00680
G1 X95.882 Y88.688 E0.00680
G1 X96.023 Y88.523 E0.00680
G1 X96.188 Y88.382 E0.00680
G1 X96.373 Y88.269 E0.00680
G1 X96.573 Y88.186 E0.00680
G1 X96.784 Y88.135 E0.00680
G1 X97.016 Y88.117 E0.00730
G1 X153.097 Y88.126 E1.75836
G1 X153.427 Y88.186 E0.01053
G1 X153.627 Y88.269 E0.00680
G1 X153.812 Y88.382 E0.00680
G1 X153.977 Y88.523 E0.00680
G1 X154.118 Y88.688 E0.00680
G1 X154.231 Y88.873 E0.00680
G1 X154.314 Y89.073 E0.00680
G1 X154.365 Y89.284 E0.00680
G1 X154.383 Y89.516 E0.00730
G1 X154.383 Y120.484 E0.97097
G1 X154.365 Y120.716 E0.00731
G1 X154.314 Y120.927 E0.00680
G1 X154.231 Y121.127 E0.00680
G1 X154.118 Y121.312 E0.00680
G1 X153.977 Y121.477 E0.00680
G1 X153.812 Y121.618 E0.00680
G1 X153.627 Y121.731 E0.00680
G1 X153.427 Y121.814 E0.00680
G1 X153.216 Y121.865 E0.00680
G1 X152.984 Y121.883 E0.00731
G1 X97.016 Y121.883 E1.75483
G1 X96.784 Y121.865 E0.00731
G1 X96.573 Y121.814 E0.00680
G1 X96.373 Y121.731 E0.00680
G1 X96.188 Y121.618 E0.00680
G1 X96.023 Y121.477 E0.00680
G1 X95.882 Y121.312 E0.00680
G1 X95.769 Y121.127 E0.00680
G1 X95.686 Y120.927 E0.00680
G1 X95.649 Y120.774 E0.00492
G1 X95.816 Y120.570 F10800.000
G1 X96.204 Y120.620
;TYPE:Gap fill
;WIDTH:0.129706
G1 F1200.000
G1 X96.357 Y120.877 E0.00216
G1 X96.481 Y121.019 E0.00136
G1 X96.660 Y121.168 E0.00168
G1 X96.871 Y121.283 E0.00174
G1 X97.827 Y121.543 F10800.000
;WIDTH:0.22382
G1 F1200.000
G1 X98.426 Y121.625 E0.00909
;WIDTH:0.123818
G1 X99.118 Y121.654 E0.00466
;WIDTH:0.175594
G1 X99.582 Y121.628 E0.00513
;WIDTH:0.216346
G1 X99.735 Y121.608 E0.00222
;WIDTH:0.259444
G1 X100.041 Y121.567 E0.00555
G1 X100.137 Y121.401 E0.00346
;WIPE_START
G1 F8640.000
G1 X100.041 Y121.567 E-0.04438
G1 X99.735 Y121.608 E-0.07123
;WIPE_END
G1 E-0.68439 F2100.000
G1 Z0.600 F10800.000
G1 X95.960 Y119.654
G1 Z0.200
G1 E0.80000 F2100.000
;WIDTH:0.271442
G1 F1200.000
G1 X95.895 Y119.207 E0.00857
;WIDTH:0.137392
G1 X95.853 Y118.512 E0.00547
;WIDTH:0.171845
G1 X95.870 Y118.050 E0.00496
;WIDTH:0.221644
G1 X95.895 Y117.824 E0.00338
;WIDTH:0.276411
G1 X95.922 Y117.581 E0.00475
;WIDTH:0.30407
G1 X95.960 Y117.378 E0.00449
;WIPE_START
G1 F8640.000
G1 X95.922 Y117.581 E-0.04773
;WIPE_END
G1 E-0.75227 F2100.000
G1 Z0.600 F10800.000
G1 X153.893 Y89.909
G1 Z0.200
G1 E0.80000 F2100.000
;TYPE:Solid infill
;WIDTH:0.420338
G1 F1200.000
G1 X152.769 Y88.786 E0.04987
G1 X152.235 Y88.786 E0.01675
G1 X153.723 Y90.273 E0.06603
G1 X153.723 Y90.807 E0.01675
G1 X151.702 Y88.785 E0.08972
G1 X151.168 Y88.785 E0.01675
G1 X153.723 Y91.341 E0.11342
G1 X153.723 Y91.875 E0.01675
G1 X150.634 Y88.785 E0.13711
G1 X150.100 Y88.785 E0.01675
G1 X153.723 Y92.408 E0.16080
G1 X153.723 Y92.942 E0.01675
G1 X149.566 Y88.785 E0.18449
G1 X149.032 Y88.785 E0.01675
G1 X153.723 Y93.476 E0.20818
M73 Q2 S35
G1 X153.723 Y94.010 E0.01675
G1 X148.499 Y88.785 E0.23188
M73 P2 R35
G1 X147.965 Y88.785 E0.01675
G1 X153.723 Y94.543 E0.25557
G1 X153.723 Y95.077 E0.01675
G1 X147.431 Y88.785 E0.27926
M73 P2 R34
G1 X146.897 Y88.785 E0.01675
G1 X153.723 Y95.611 E0.30295
G1 X153.723 Y96.145 E0.01675
G1 X146.363 Y88.785 E0.32665
G1 X145.829 Y88.785 E0.01675
G1 X153.723 Y96.678 E0.35034
G1 X153.723 Y97.212 E0.01675
G1 X145.296 Y88.784 E0.37403
G1 X144.762 Y88.784 E0.01675
G1 X153.723 Y97.746 E0.39772
G1 X153.723 Y98.280 E0.01675
G1 X144.228 Y88.784 E0.42142
G1 X143.694 Y88.784 E0.01675
G1 X153.723 Y98.813 E0.44511
G1 X153.723 Y99.347 E0.01675
G1 X143.160 Y88.784 E0.46880
G1 X142.626 Y88.784 E0.01675
G1 X153.723 Y99.881 E0.49249
G1 X153.723 Y100.415 E0.01675
G1 X142.093 Y88.784 E0.51619
G1 X141.559 Y88.784 E0.01675
G1 X153.723 Y100.948 E0.53988
G1 X153.723 Y101.482 E0.01675
G1 X141.025 Y88.784 E0.56357
M73 Q2 S34
G1 X140.491 Y88.784 E0.01675
G1 X153.723 Y102.016 E0.58726
G1 X153.723 Y102.550 E0.01675
G1 X139.957 Y88.784 E0.61095
G1 X139.423 Y88.784 E0.01675
G1 X153.723 Y103.083 E0.63465
G1 X153.723 Y103.617 E0.01675
G1 X138.889 Y88.783 E0.65834
G1 X138.356 Y88.783 E0.01675
G1 X153.723 Y104.151 E0.68203
G1 X153.723 Y104.685 E0.01675
G1 X137.822 Y88.783 E0.70572
G1 X137.288 Y88.783 E0.01675
G1 X153.723 Y105.218 E0.72942
G1 X153.723 Y105.752 E0.01675
G1 X136.754 Y88.783 E0.75311
G1 X136.220 Y88.783 E0.01675
G1 X153.723 Y106.286 E0.77680
G1 X153.723 Y106.820 E0.01675
G1 X135.686 Y88.783 E0.80049
M73 P3 R34
M73 Q3 S34
G1 X135.153 Y88.783 E0.01675
G1 X153.723 Y107.353 E0.82419
G1 X153.723 Y107.887 E0.01675
G1 X134.619 Y88.783 E0.84788
G1 X134.085 Y88.783 E0.01675
G1 X153.723 Y108.421 E0.87157
G1 X153.723 Y108.955 E0.01675
G1 X133.551 Y88.783 E0.89526
G1 X133.017 Y88.783 E0.01675
G1 X153.723 Y109.488 E0.91895
G1 X153.723 Y110.022 E0.01675
G1 X132.483 Y88.782 E0.94265
G1 X131.950 Y88.782 E0.01675
G1 X153.723 Y110.556 E0.96634
G1 X153.723 Y111.090 E0.01675
G1 X131.416 Y88.782 E0.99003
G1 X130.882 Y88.782 E0.01675
G1 X153.723 Y111.623 E1.01372
G1 X153.723 Y112.157 E0.01675
G1 X130.348 Y88.782 E1.03742
G1 X129.814 Y88.782 E0.01675
G1 X153.723 Y112.691 E1.06111
G1 X153.723 Y113.225 E0.01675
G1 X129.280 Y88.782 E1.08480
G1 X128.747 Y88.782 E0.01675
G1 X153.723 Y113.758 E1.10849
G1 X153.723 Y114.292 E0.01675
G1 X128.213 Y88.782 E1.13219
M73 P4 R34
M73 Q4 S34
G1 X127.679 Y88.782 E0.01675
G1 X153.723 Y114.826 E1.15588
G1 X153.723 Y115.360 E0.01675
G1 X127.145 Y88.782 E1.17957
G1 X126.611 Y88.782 E0.01675
G1 X153.723 Y115.893 E1.20326
G1 X153.723 Y116.427 E0.01675
G1 X126.077 Y88.781 E1.22696
G1 X125.544 Y88.781 E0.01675
G1 X153.723 Y116.961 E1.25065
G1 X153.723 Y117.495 E0.01675
G1 X125.010 Y88.781 E1.27434
G1 X124.476 Y88.781 E0.01675
G1 X153.723 Y118.028 E1.29803
G1 X153.723 Y118.562 E0.01675
G1 X123.942 Y88.781 E1.32172
G1 X123.408 Y88.781 E0.01675
G1 X153.723 Y119.096 E1.34542
M73 P4 R33
G1 X153.723 Y119.630 E0.01675
G1 X122.874 Y88.781 E1.36911
M73 P5 R33
M73 Q5 S34
G1 X122.341 Y88.781 E0.01675
G1 X153.723 Y120.163 E1.39280
G1 X153.723 Y120.458 E0.00925
G1 X153.691 Y120.665 E0.00658
G1 X121.807 Y88.781 E1.41507
G1 X121.273 Y88.781 E0.01675
G1 X153.503 Y121.010 E1.43040
M73 Q5 S33
G1 X153.326 Y121.139 E0.00687
G1 X153.153 Y121.195 E0.00568
G1 X120.739 Y88.781 E1.43860
G1 X120.205 Y88.781 E0.01675
G1 X152.648 Y121.223 E1.43985
G1 X152.114 Y121.223 E0.01675
G1 X119.671 Y88.780 E1.43985
G1 X119.138 Y88.780 E0.01675
G1 X151.580 Y121.223 E1.43986
G1 X151.047 Y121.223 E0.01675
G1 X118.604 Y88.780 E1.43986
G1 X118.070 Y88.780 E0.01675
G1 X150.513 Y121.223 E1.43987
M73 P6 R33
M73 Q6 S33
G1 X149.979 Y121.223 E0.01675
G1 X117.536 Y88.780 E1.43987
G1 X117.002 Y88.780 E0.01675
G1 X149.445 Y121.223 E1.43987
G1 X148.912 Y121.223 E0.01675
G1 X116.468 Y88.780 E1.43988
G1 X115.935 Y88.780 E0.01675
G1 X148.378 Y121.223 E1.43988
G1 X147.844 Y121.223 E0.01675
G1 X115.401 Y88.780 E1.43988
G1 X114.867 Y88.780 E0.01675
G1 X147.310 Y121.223 E1.43989
G1 X146.777 Y121.223 E0.01675
G1 X114.333 Y88.780 E1.43989
G1 X113.799 Y88.780 E0.01675
G1 X146.243 Y121.223 E1.43990
G1 X145.709 Y121.223 E0.01675
G1 X113.265 Y88.779 E1.43990
M73 P7 R33
M73 Q7 S33
G1 X112.732 Y88.779 E0.01675
G1 X145.175 Y121.223 E1.43990
G1 X144.642 Y121.223 E0.01675
G1 X112.198 Y88.779 E1.43991
G1 X111.664 Y88.779 E0.01675
G1 X144.108 Y121.223 E1.43991
G1 X143.574 Y121.223 E0.01675
G1 X111.130 Y88.779 E1.43991
G1 X110.596 Y88.779 E0.01675
G1 X143.040 Y121.223 E1.43992
G1 X142.507 Y121.223 E0.01675
G1 X110.062 Y88.779 E1.43992
G1 X109.529 Y88.779 E0.01675
G1 X141.973 Y121.223 E1.43993
M73 P7 R32
G1 X141.439 Y121.223 E0.01675
G1 X108.995 Y88.779 E1.43993
G1 X108.461 Y88.779 E0.01675
G1 X140.905 Y121.223 E1.43993
M73 P8 R32
M73 Q8 S33
G1 X140.372 Y121.223 E0.01675
G1 X107.927 Y88.779 E1.43994
M73 Q8 S32
G1 X107.393 Y88.778 E0.01675
G1 X139.838 Y121.223 E1.43994
G1 X139.304 Y121.223 E0.01675
G1 X106.859 Y88.778 E1.43994
G1 X106.326 Y88.778 E0.01675
G1 X138.770 Y121.223 E1.43995
G1 X138.237 Y121.223 E0.01675
G1 X105.792 Y88.778 E1.43995
G1 X105.258 Y88.778 E0.01675
G1 X137.703 Y121.223 E1.43996
G1 X137.169 Y121.223 E0.01675
G1 X104.724 Y88.778 E1.43996
G1 X104.190 Y88.778 E0.01675
G1 X136.635 Y121.223 E1.43996
G1 X136.102 Y121.223 E0.01675
G1 X103.656 Y88.778 E1.43997
M73 P9 R32
G1 X103.123 Y88.778 E0.01675
G1 X135.568 Y121.223 E1.43997
M73 Q9 S32
G1 X135.034 Y121.223 E0.01675
G1 X102.589 Y88.778 E1.43997
G1 X102.055 Y88.778 E0.01675
G1 X134.500 Y121.223 E1.43998
G1 X133.967 Y121.223 E0.01675
G1 X101.521 Y88.778 E1.43998
G1 X100.987 Y88.777 E0.01675
G1 X133.433 Y121.223 E1.43999
G1 X132.899 Y121.223 E0.01675
G1 X100.453 Y88.777 E1.43999
G1 X99.920 Y88.777 E0.01675
G1 X132.365 Y121.223 E1.43999
G1 X131.832 Y121.223 E0.01675
G1 X99.386 Y88.777 E1.44000
G1 X98.852 Y88.777 E0.01675
G1 X131.298 Y121.223 E1.44000
G1 X130.764 Y121.223 E0.01675
M73 P10 R32
G1 X98.318 Y88.777 E1.44000
M73 Q10 S32
G1 X97.784 Y88.777 E0.01675
G1 X130.230 Y121.223 E1.44001
G1 X129.697 Y121.223 E0.01675
G1 X97.250 Y88.777 E1.44001
G1 X96.899 Y88.788 E0.01105
G1 X96.770 Y88.830 E0.00425
G1 X129.163 Y121.223 E1.43766
G1 X128.629 Y121.223 E0.01675
G1 X96.453 Y89.047 E1.42801
G1 X96.361 Y89.174 E0.00493
