; generated by PrusaSlicer 2.3.3+win64 on 2021-12-13 at 12:49:48 UTC

; 

; external perimeters extrusion width = 0.45mm
; perimeters extrusion width = 0.45mm
; infill extrusion width = 0.45mm
; solid infill extrusion width = 0.45mm
; top infill extrusion width = 0.40mm
; first layer extrusion width = 0.42mm

M73 P0 R40
M73 Q0 S40
M201 X1000 Y1000 Z200 E5000 ; sets maximum accelerations, mm/sec^2
M203 X200 Y200 Z12 E120 ; sets maximum feedrates, mm/sec
M204 P1250 R1250 T1250 ; sets acceleration (P, T) and retract acceleration (R), mm/sec^2
M205 X8.00 Y8.00 Z0.40 E4.50 ; sets the jerk limits, mm/sec
M205 S0 T0 ; sets the minimum extruding and travel feed rate, mm/sec
M107
;TYPE:Custom
M862.3 P "MK3S" ; printer model check
M862.1 P0.4 ; nozzle diameter check
M115 U3.10.0 ; tell printer latest fw version
G90 ; use absolute coordinates
M83 ; extruder relative mode
M104 S215 ; set extruder temp
M140 S60 ; set bed temp
M190 S60 ; wait for bed temp
M109 S215 ; wait for extruder temp
G28 W ; home all without mesh bed level
G80 ; mesh bed leveling
G1 Y-3.0 F1000.0 ; go outside print area
G92 E0.0
G1 X60.0 E9.0 F1000.0 ; intro line
G1 X100.0 E12.5 F1000.0 ; intro line
G92 E0.0
M221 S95

; Don't change E values below. Excessive value can damage the printer.
M907 E430 ; set extruder motor current
G21 ; set units to millimeters
G90 ; use absolute coordinates
M83 ; use relative distances for extrusion
M900 K0.05 ; Filament gcode LA 1.5
M900 K30 ; Filament gcode LA 1.0
;LAYER_CHANGE
;Z:0.2
;HEIGHT:0.2
;BEFORE_LAYER_CHANGE
G92 E0.0
;0.2


G1 E-0.80000 F2100.000
G1 Z0.400 F10800.000
;AFTER_LAYER_CHANGE
;0.2
G1 X93.882 Y86.443
G1 Z0.200
G1 E0.80000 F2100.000
M204 S1000
;TYPE:Skirt
;WIDTH:0.42
G1 F1200.000
G1 X94.624 Y85.836 E0.03005
G1 X95.293 Y85.480 E0.02375
G1 X95.929 Y85.271 E0.02100
G1 X96.972 Y85.133 E0.03300
G1 X153.004 Y85.133 E1.75683
G1 X153.851 Y85.217 E0.02669
G1 X154.663 Y85.462 E0.02660
G1 X155.416 Y85.862 E0.02672
G1 X156.060 Y86.384 E0.02601
G1 X156.618 Y87.054 E0.02732
G1 X157.015 Y87.782 E0.02601
G1 X157.273 Y88.599 E0.02684
G1 X157.363 Y89.354 E0.02386
G1 X157.363 Y120.637 E0.98085
G1 X157.229 Y121.569 E0.02952
G1 X157.031 Y122.181 E0.02017
G1 X156.725 Y122.773 E0.02089
G1 X156.113 Y123.563 E0.03134
G1 X155.376 Y124.164 E0.02981
G1 X154.707 Y124.520 E0.02375
G1 X154.071 Y124.729 E0.02100
G1 X153.028 Y124.867 E0.03300
G1 X96.950 Y124.867 E1.75826
G1 X95.957 Y124.737 E0.03143
G1 X95.330 Y124.535 E0.02065
G1 X94.747 Y124.237 E0.02053
G1 X93.943 Y123.618 E0.03182
G1 X93.336 Y122.876 E0.03005
G1 X92.980 Y122.207 E0.02375
G1 X92.772 Y121.575 E0.02088
G1 X92.633 Y120.551 E0.03240
G1 X92.634 Y89.416 E0.97619
G1 X92.765 Y88.449 E0.03060
G1 X92.966 Y87.826 E0.02053
G1 X93.267 Y87.240 E0.02065
G1 X93.845 Y86.490 E0.02970
; printing object Schizzo corso v2.stl id:0 copy 0
;WIPE_START
G1 F8640.000
G1 X94.624 Y85.836 E-0.23480
G1 X95.293 Y85.480 E-0.17490
G1 X95.929 Y85.271 E-0.15466
G1 X96.769 Y85.160 E-0.19564
;WIPE_END
G1 E-0.04000 F2100.000
G1 Z0.600 F10800.000
G1 X99.453 Y114.047
G1 Z0.200
G1 E0.80000 F2100.000
;TYPE:Perimeter
G1 F1200.000
G1 X100.000 Y114.004 E0.01720
G1 X100.547 Y114.047 E0.01720
G1 X101.080 Y114.175 E0.01720
G1 X101.587 Y114.385 E0.01720
G1 X102.055 Y114.671 E0.01720
G1 X102.472 Y115.028 E0.01720
G1 X102.829 Y115.445 E0.01720
G1 X103.115 Y115.913 E0.01720
G1 X103.325 Y116.420 E0.01720
G1 X103.453 Y116.953 E0.01720
G1 X103.496 Y117.500 E0.01720
G1 X103.453 Y118.047 E0.01720
G1 X103.325 Y118.580 E0.01720
G1 X103.115 Y119.087 E0.01720
G1 X102.829 Y119.555 E0.01720
G1 X102.472 Y119.972 E0.01720
G1 X102.055 Y120.329 E0.01720
G1 X101.587 Y120.615 E0.01720
G1 X101.080 Y120.825 E0.01720
G1 X100.547 Y120.953 E0.01720
G1 X100.000 Y120.996 E0.01720
G1 X99.453 Y120.953 E0.01720
G1 X98.920 Y120.825 E0.01720
G1 X98.629 Y120.705 E0.00985
G1 X98.413 Y120.615 E0.00735
G1 X97.945 Y120.329 E0.01720
G1 X97.528 Y119.972 E0.01720
G1 X97.171 Y119.555 E0.01720
G1 X96.885 Y119.087 E0.01720
G1 X96.675 Y118.580 E0.01720
G1 X96.547 Y118.047 E0.01720
G1 X96.504 Y117.500 E0.01720
G1 X96.547 Y116.953 E0.01720
G1 X96.675 Y116.420 E0.01720
G1 X96.885 Y115.913 E0.01720
G1 X97.171 Y115.445 E0.01720
G1 X97.528 Y115.028 E0.01720
G1 X97.945 Y114.671 E0.01720
G1 X98.413 Y114.385 E0.01720
G1 X98.920 Y114.175 E0.01720
G1 X99.395 Y114.061 E0.01532
G1 X99.483 Y114.427 F10800.000
;TYPE:External perimeter
G1 F1200.000
G1 X100.000 Y114.382 E0.01628
G1 X100.488 Y114.420 E0.01534
G1 X100.964 Y114.534 E0.01534
G1 X101.416 Y114.722 E0.01534
G1 X101.833 Y114.977 E0.01534
G1 X102.205 Y115.295 E0.01534
G1 X102.523 Y115.667 E0.01534
G1 X102.778 Y116.084 E0.01534
G1 X102.966 Y116.536 E0.01534
G1 X103.080 Y117.012 E0.01534
G1 X103.118 Y117.500 E0.01534
G1 X103.080 Y117.988 E0.01534
G1 X102.966 Y118.464 E0.01534
G1 X102.778 Y118.916 E0.01534
G1 X102.523 Y119.333 E0.01534
G1 X102.205 Y119.705 E0.01534
G1 X101.833 Y120.023 E0.01534
G1 X101.416 Y120.278 E0.01534
G1 X100.964 Y120.466 E0.01534
G1 X100.488 Y120.580 E0.01534
G1 X100.000 Y120.618 E0.01534
G1 X99.512 Y120.580 E0.01534
G1 X99.036 Y120.466 E0.01534
G1 X98.774 Y120.357 E0.00892
G1 X98.584 Y120.278 E0.00642
G1 X98.167 Y120.023 E0.01534
G1 X97.795 Y119.705 E0.01534
G1 X97.477 Y119.333 E0.01534
G1 X97.222 Y118.916 E0.01534
G1 X97.034 Y118.464 E0.01534
G1 X96.920 Y117.988 E0.01534
G1 X96.882 Y117.500 E0.01534
G1 X96.920 Y117.012 E0.01534
G1 X97.034 Y116.536 E0.01534
G1 X97.222 Y116.084 E0.01534
G1 X97.477 Y115.667 E0.01534
G1 X97.795 Y115.295 E0.01534
G1 X98.167 Y114.977 E0.01534
G1 X98.584 Y114.722 E0.01534
G1 X99.036 Y114.534 E0.01534
G1 X99.424 Y114.441 E0.01251
G1 X99.623 Y114.053 F10800.000
;WIPE_START
G1 F8640.000
G1 X100.000 Y114.382 E-0.13362
G1 X100.488 Y114.420 E-0.11298
G1 X100.964 Y114.534 E-0.11298
G1 X101.416 Y114.722 E-0.11298
G1 X101.833 Y114.977 E-0.11298
G1 X102.205 Y115.295 E-0.11298
G1 X102.378 Y115.497 E-0.06146
;WIPE_END
G1 E-0.04000 F2100.000
G1 Z0.600 F10800.000
G1 X96.074 Y120.884
G1 Z0.200
G1 E0.80000 F2100.000
;TYPE:Perimeter
G1 F1200.000
G1 X96.017 Y120.696 E0.00616
G1 X95.994 Y120.461 E0.00738
G1 X95.994 Y89.539 E0.96956
G1 X96.017 Y89.304 E0.00738
G1 X96.074 Y89.116 E0.00616
G1 X96.167 Y88.943 E0.00616
G1 X96.291 Y88.791 E0.00616
G1 X96.443 Y88.667 E0.00616
G1 X96.616 Y88.574 E0.00616
G1 X96.804 Y88.517 E0.00616
G1 X97.039 Y88.494 E0.00738
G1 X152.961 Y88.494 E1.75342
M73 P1 R40
M73 Q1 S40
G1 X153.196 Y88.517 E0.00738
G1 X153.384 Y88.574 E0.00616
G1 X153.557 Y88.667 E0.00616
G1 X153.709 Y88.791 E0.00616
G1 X153.833 Y88.943 E0.00616
G1 X153.926 Y89.117 E0.00616
G1 X153.983 Y89.304 E0.00616
G1 X154.006 Y89.539 E0.00738
G1 X154.006 Y120.461 E0.96956
G1 X153.983 Y120.696 E0.00738
G1 X153.926 Y120.883 E0.00616
G1 X153.833 Y121.057 E0.00616
G1 X153.709 Y121.209 E0.00616
G1 X153.557 Y121.333 E0.00616
G1 X153.383 Y121.426 E0.00616
G1 X153.196 Y121.483 E0.00616
G1 X152.961 Y121.506 E0.00738
G1 X97.039 Y121.506 E1.75342
G1 X96.804 Y121.483 E0.00738
G1 X96.617 Y121.426 E0.00616
G1 X96.443 Y121.333 E0.00616
G1 X96.291 Y121.209 E0.00616
G1 X96.167 Y121.057 E0.00616
G1 X96.102 Y120.936 E0.00428
G1 X95.770 Y121.114 F10800.000
;TYPE:External perimeter
G1 F1200.000
G1 X95.724 Y121.029 E0.00305
G1 X95.645 Y120.769 E0.00849
G1 X95.617 Y120.480 E0.00912
G1 X95.617 Y89.520 E0.97072
G1 X95.645 Y89.231 E0.00912
G1 X95.724 Y88.971 E0.00849
G1 X95.852 Y88.733 E0.00849
G1 X95.922 Y88.647 E0.00347
G1 X96.023 Y88.523 E0.00502
G1 X96.233 Y88.352 E0.00849
G1 X96.471 Y88.224 E0.00849
G1 X96.731 Y88.145 E0.00849
G1 X97.020 Y88.117 E0.00912
G1 X152.980 Y88.117 E1.75458
G1 X153.269 Y88.145 E0.00912
G1 X153.529 Y88.224 E0.00849
G1 X153.767 Y88.352 E0.00849
G1 X153.977 Y88.523 E0.00849
G1 X154.148 Y88.733 E0.00849
G1 X154.276 Y88.972 E0.00849
G1 X154.355 Y89.231 E0.00849
G1 X154.383 Y89.520 E0.00912
G1 X154.383 Y120.480 E0.97072
G1 X154.355 Y120.769 E0.00912
G1 X154.276 Y121.028 E0.00849
G1 X154.148 Y121.267 E0.00849
G1 X153.977 Y121.477 E0.00849
G1 X153.767 Y121.648 E0.00849
G1 X153.528 Y121.776 E0.00849
G1 X153.269 Y121.855 E0.00849
G1 X152.980 Y121.883 E0.00912
G1 X97.020 Y121.883 E1.75458
G1 X96.731 Y121.855 E0.00912
G1 X96.472 Y121.776 E0.00849
G1 X96.233 Y121.648 E0.00849
G1 X96.023 Y121.477 E0.00849
G1 X95.852 Y121.267 E0.00849
G1 X95.798 Y121.167 E0.00356
G1 X95.818 Y121.030 F10800.000
;WIPE_START
G1 F8640.000
G1 X95.724 Y121.029 E-0.03628
G1 X95.645 Y120.769 E-0.06251
G1 X95.617 Y120.480 E-0.06719
G1 X95.617 Y117.907 E-0.59402
;WIPE_END
G1 E-0.04000 F2100.000
G1 Z0.600 F10800.000
G1 X96.107 Y119.000
G1 Z0.200
G1 E0.80000 F2100.000
;TYPE:Solid infill
;WIDTH:0.424833
G1 F1200.000
G1 X98.330 Y121.223 E0.09984
G1 X97.790 Y121.223 E0.01715
G1 X96.277 Y119.710 E0.06796
G1 X96.277 Y120.250 E0.01715
G1 X97.250 Y121.223 E0.04370
G1 X96.860 Y121.204 E0.01240
G1 X96.725 Y121.163 E0.00447
G1 X96.601 Y121.097 E0.00447
G1 X96.504 Y121.017 E0.00400
G1 X96.125 Y120.638 E0.01701
;WIPE_START
G1 F8640.000
G1 X96.504 Y121.017 E-0.12366
G1 X96.601 Y121.097 E-0.02906
G1 X96.725 Y121.163 E-0.03250
G1 X96.860 Y121.204 E-0.03250
G1 X97.250 Y121.223 E-0.09016
G1 X96.277 Y120.250 E-0.31776
G1 X96.277 Y119.710 E-0.12471
G1 X96.306 Y119.739 E-0.00965
;WIPE_END
G1 E-0.04000 F2100.000
G1 Z0.600 F10800.000
G1 X96.338 Y118.648
G1 Z0.200
G1 E0.80000 F2100.000
;TYPE:Gap fill
;WIDTH:0.271333
G1 F1200.000
G1 X96.272 Y118.098 E0.01052
;WIDTH:0.174918
G1 X96.249 Y117.495 E0.00662
;WIDTH:0.222574
G1 X96.272 Y116.902 E0.00886
;WIDTH:0.271333
G1 X96.305 Y116.627 E0.00526
;WIDTH:0.320091
G1 X96.338 Y116.352 E0.00638
;WIPE_START
G1 F8640.000
G1 X96.305 Y116.627 E-0.06394
;WIPE_END
G1 E-0.73606 F2100.000
G1 Z0.600 F10800.000
G1 X98.852 Y121.162
M73 P1 R39
G1 Z0.200
G1 E0.80000 F2100.000
;WIDTH:0.271329
G1 F1200.000
G1 X99.402 Y121.228 E0.01052
;WIDTH:0.174917
G1 X100.005 Y121.251 E0.00662
;WIDTH:0.222568
G1 X100.598 Y121.228 E0.00886
;WIDTH:0.252077
G1 X100.722 Y121.213 E0.00218
;WIDTH:0.281586
G1 X100.847 Y121.198 E0.00249
G1 X100.847 Y121.198 F10800.000
;WIDTH:0.320088
G1 F1200.000
G1 X101.148 Y121.162 E0.00698
;WIPE_START
G1 F8640.000
G1 X100.847 Y121.198 E-0.06992
;WIPE_END
G1 E-0.73008 F2100.000
G1 Z0.600 F10800.000
G1 X153.893 Y89.911
G1 Z0.200
G1 E0.80000 F2100.000
;TYPE:Solid infill
;WIDTH:0.42059
G1 F1200.000
G1 X152.770 Y88.788 E0.04987
G1 X152.236 Y88.788 E0.01678
G1 X153.723 Y90.275 E0.06606
G1 X153.723 Y90.809 E0.01677
G1 X151.701 Y88.788 E0.08979
G1 X151.167 Y88.787 E0.01678
G1 X153.723 Y91.343 E0.11351
G1 X153.723 Y91.878 E0.01677
G1 X150.633 Y88.787 E0.13724
G1 X150.099 Y88.787 E0.01678
G1 X153.723 Y92.412 E0.16096
G1 X153.723 Y92.946 E0.01677
G1 X149.565 Y88.787 E0.18469
G1 X149.030 Y88.787 E0.01678
G1 X153.723 Y93.480 E0.20841
G1 X153.723 Y94.014 E0.01677
G1 X148.496 Y88.787 E0.23214
G1 X147.962 Y88.787 E0.01678
G1 X153.723 Y94.548 E0.25586
G1 X153.723 Y95.082 E0.01677
G1 X147.428 Y88.787 E0.27959
G1 X146.894 Y88.787 E0.01678
G1 X153.723 Y95.616 E0.30331
G1 X153.723 Y96.150 E0.01677
G1 X146.359 Y88.787 E0.32704
G1 X145.825 Y88.786 E0.01678
G1 X153.723 Y96.684 E0.35076
G1 X153.723 Y97.219 E0.01677
G1 X145.291 Y88.786 E0.37449
G1 X144.757 Y88.786 E0.01678
G1 X153.723 Y97.753 E0.39821
G1 X153.723 Y98.287 E0.01677
G1 X144.222 Y88.786 E0.42194
M73 Q2 S39
G1 X143.688 Y88.786 E0.01678
G1 X153.723 Y98.821 E0.44566
M73 P2 R39
G1 X153.723 Y99.355 E0.01677
G1 X143.154 Y88.786 E0.46938
G1 X142.620 Y88.786 E0.01678
G1 X153.723 Y99.889 E0.49311
G1 X153.723 Y100.423 E0.01677
G1 X142.086 Y88.786 E0.51683
G1 X141.551 Y88.786 E0.01678
G1 X153.723 Y100.957 E0.54056
G1 X153.723 Y101.491 E0.01677
G1 X141.017 Y88.785 E0.56428
G1 X140.483 Y88.785 E0.01678
G1 X153.723 Y102.026 E0.58801
G1 X153.723 Y102.560 E0.01677
G1 X139.949 Y88.785 E0.61173
G1 X139.415 Y88.785 E0.01678
G1 X153.723 Y103.094 E0.63546
G1 X153.723 Y103.628 E0.01677
G1 X138.880 Y88.785 E0.65918
G1 X138.346 Y88.785 E0.01678
G1 X153.723 Y104.162 E0.68291
G1 X153.723 Y104.696 E0.01677
G1 X137.812 Y88.785 E0.70663
G1 X137.278 Y88.785 E0.01678
G1 X153.723 Y105.230 E0.73036
G1 X153.723 Y105.764 E0.01677
G1 X136.744 Y88.785 E0.75408
G1 X136.209 Y88.785 E0.01678
G1 X153.723 Y106.298 E0.77781
G1 X153.723 Y106.832 E0.01677
G1 X135.675 Y88.784 E0.80153
G1 X135.141 Y88.784 E0.01678
G1 X153.723 Y107.367 E0.82526
G1 X153.723 Y107.901 E0.01677
G1 X134.607 Y88.784 E0.84898
G1 X134.072 Y88.784 E0.01678
G1 X153.723 Y108.435 E0.87271
G1 X153.723 Y108.969 E0.01677
G1 X133.538 Y88.784 E0.89643
G1 X133.004 Y88.784 E0.01678
G1 X153.723 Y109.503 E0.92016
G1 X153.723 Y110.037 E0.01677
G1 X132.470 Y88.784 E0.94388
M73 P3 R39
M73 Q3 S39
G1 X131.936 Y88.784 E0.01678
G1 X153.723 Y110.571 E0.96761
G1 X153.723 Y111.105 E0.01677
G1 X131.401 Y88.784 E0.99133
G1 X130.867 Y88.783 E0.01678
G1 X153.723 Y111.639 E1.01506
G1 X153.723 Y112.174 E0.01677
G1 X130.333 Y88.783 E1.03878
G1 X129.799 Y88.783 E0.01678
G1 X153.723 Y112.708 E1.06251
G1 X153.723 Y113.242 E0.01677
G1 X129.265 Y88.783 E1.08623
G1 X128.730 Y88.783 E0.01678
G1 X153.723 Y113.776 E1.10996
G1 X153.723 Y114.310 E0.01677
G1 X128.196 Y88.783 E1.13368
G1 X127.662 Y88.783 E0.01678
G1 X153.723 Y114.844 E1.15741
G1 X153.723 Y115.378 E0.01677
G1 X127.128 Y88.783 E1.18113
G1 X126.594 Y88.783 E0.01678
G1 X153.723 Y115.912 E1.20486
G1 X153.723 Y116.446 E0.01677
G1 X126.059 Y88.783 E1.22858
G1 X125.525 Y88.782 E0.01678
G1 X153.723 Y116.980 E1.25231
M73 P4 R39
M73 Q4 S39
G1 X153.723 Y117.515 E0.01677
G1 X124.991 Y88.782 E1.27603
G1 X124.457 Y88.782 E0.01678
G1 X153.723 Y118.049 E1.29976
M73 P4 R38
G1 X153.723 Y118.583 E0.01677
G1 X123.922 Y88.782 E1.32348
G1 X123.388 Y88.782 E0.01678
G1 X153.723 Y119.117 E1.34721
G1 X153.723 Y119.651 E0.01677
G1 X122.854 Y88.782 E1.37093
G1 X122.320 Y88.782 E0.01678
G1 X153.723 Y120.185 E1.39466
M73 Q4 S38
G1 X153.723 Y120.447 E0.00824
G1 X153.690 Y120.686 E0.00757
G1 X121.786 Y88.782 E1.41692
G1 X121.251 Y88.782 E0.01678
G1 X153.491 Y121.021 E1.43180
G1 X153.399 Y121.097 E0.00375
G1 X153.275 Y121.163 E0.00442
G1 X153.140 Y121.204 E0.00442
G1 X120.717 Y88.781 E1.43993
G1 X120.183 Y88.781 E0.01678
G1 X152.625 Y121.223 E1.44077
G1 X152.091 Y121.223 E0.01677
G1 X119.649 Y88.781 E1.44078
M73 P5 R38
M73 Q5 S38
G1 X119.115 Y88.781 E0.01678
G1 X151.557 Y121.223 E1.44078
G1 X151.022 Y121.223 E0.01677
G1 X118.580 Y88.781 E1.44079
G1 X118.046 Y88.781 E0.01678
G1 X150.488 Y121.223 E1.44079
G1 X149.954 Y121.223 E0.01677
G1 X117.512 Y88.781 E1.44080
G1 X116.978 Y88.781 E0.01678
G1 X149.420 Y121.223 E1.44080
G1 X148.886 Y121.223 E0.01677
G1 X116.444 Y88.781 E1.44081
G1 X115.909 Y88.781 E0.01678
G1 X148.352 Y121.223 E1.44081
G1 X147.818 Y121.223 E0.01677
G1 X115.375 Y88.780 E1.44082
G1 X114.841 Y88.780 E0.01678
G1 X147.284 Y121.223 E1.44082
G1 X146.750 Y121.223 E0.01677
G1 X114.307 Y88.780 E1.44083
M73 P6 R38
M73 Q6 S38
G1 X113.772 Y88.780 E0.01678
G1 X146.215 Y121.223 E1.44083
G1 X145.681 Y121.223 E0.01677
G1 X113.238 Y88.780 E1.44083
G1 X112.704 Y88.780 E0.01678
G1 X145.147 Y121.223 E1.44084
G1 X144.613 Y121.223 E0.01677
G1 X112.170 Y88.780 E1.44084
G1 X111.636 Y88.780 E0.01678
G1 X144.079 Y121.223 E1.44085
G1 X143.545 Y121.223 E0.01677
G1 X111.101 Y88.780 E1.44085
G1 X110.567 Y88.780 E0.01678
G1 X143.011 Y121.223 E1.44086
M73 P6 R37
G1 X142.477 Y121.223 E0.01677
G1 X110.033 Y88.779 E1.44086
G1 X109.499 Y88.779 E0.01678
G1 X141.943 Y121.223 E1.44087
G1 X141.409 Y121.223 E0.01677
G1 X108.965 Y88.779 E1.44087
M73 Q6 S37
G1 X108.430 Y88.779 E0.01678
G1 X140.874 Y121.223 E1.44088
M73 P7 R37
M73 Q7 S37
G1 X140.340 Y121.223 E0.01677
G1 X107.896 Y88.779 E1.44088
G1 X107.362 Y88.779 E0.01678
G1 X139.806 Y121.223 E1.44089
G1 X139.272 Y121.223 E0.01677
G1 X106.828 Y88.779 E1.44089
G1 X106.294 Y88.779 E0.01678
G1 X138.738 Y121.223 E1.44090
G1 X138.204 Y121.223 E0.01677
G1 X105.759 Y88.779 E1.44090
G1 X105.225 Y88.778 E0.01678
G1 X137.670 Y121.223 E1.44090
G1 X137.136 Y121.223 E0.01677
G1 X104.691 Y88.778 E1.44091
G1 X104.157 Y88.778 E0.01678
G1 X136.602 Y121.223 E1.44091
G1 X136.067 Y121.223 E0.01677
G1 X103.622 Y88.778 E1.44092
G1 X103.088 Y88.778 E0.01678
G1 X135.533 Y121.223 E1.44092
M73 P8 R37
M73 Q8 S37
G1 X134.999 Y121.223 E0.01677
